!!!!SEGMENT: pl-wtm--r-704-m--010_moniuszko-stanislaw--widma-no-6-chor-ptakow.krn
!!!cenid: 18xx:3065
!!!COM: Moniuszko, Stanisław
!!!COM-rismID: pe30008351
!!!CDT: 1819/05/05-1872/06/04
!!!CNT: Polish
!!!GTL: Widma
!!!OTL: No. 6 – Chór ptaków
!!!OMV: 010
!!!PDT: 1852
!!!AGN: Secular
!!!SMS-siglum: PL-Wtm
!!!SMS-shelfmark: R 704/M
!!!SMS-shelfwork: G
!!!SMS-variant:
!!!SMS-altvar:
!!!NIFC-rismSourceID: 1001093778
!!!NIFC-islandoraID:
!!!URL-pdf-islandora:
!!!URL-scan:
!!!ONB-nifc: UWAGA: skany 0032-0038. Nie wpisywać tekstu rosyjskiego i samodzielnych dialogów poza krótkimi didaskaliami.
!!!AIN: 1 alto 2 empty 1 soprn 1 tenor
!!!key:
**kern	**kern	**dynam	**kern	**text	**text	**dynam	**kern	**text	**text	**dynam	**kern	**text	**text	**dynam	**kern	**text	**text	**dynam
*part5	*part5	*part5	*part4	*part4	*part4	*part4	*part3	*part3	*part3	*part3	*part2	*part2	*part2	*part2	*part1	*part1	*part1	*part1
*staff6	*staff5	*	*staff4	*staff4	*staff4	*	*staff3	*staff3	*staff3	*	*staff2	*staff2	*staff2	*	*staff1	*staff1	*staff1	*
*Iempty	*Iempty	*	*Iempty	*	*	*	*Itenor	*	*	*	*Ialto	*	*	*	*Isoprn	*	*	*
*I"[Forte-Piano.]	*I"[Forte-Piano.]	*	*I"[Basso]	*	*	*	*I"[Tenore]	*	*	*	*I"[Alto]	*	*	*	*I"[Soprano]	*	*	*
*clefF4	*clefG2	*	*clefF4	*	*	*	*clefG2	*	*	*	*clefG2	*	*	*	*clefG2	*	*	*
*	*	*	*	*	*	*	*	*	*	*	*	*	*	*	*	*	*	*
*k[b-]	*k[b-]	*	*k[b-]	*	*	*	*k[b-]	*	*	*	*k[b-]	*	*	*	*k[b-]	*	*	*
*d:	*d:	*	*d:	*	*	*	*d:	*	*	*	*d:	*	*	*	*d:	*	*	*
*M2/4	*M2/4	*	*M2/4	*	*	*	*M2/4	*	*	*	*M2/4	*	*	*	*M2/4	*	*	*
!	!	!	!	!	!	!	!	!	!	!	!	!	!	!	!LO:TX:a:i:t=Coro degli uccelli di rapina:color=red	!	!	!
!	!LO:TX:Bi:a:t=Allegro feroce.	!	!	!	!	!	!	!	!	!	!	!	!	!	!	!	!	!
*clefG2	*	*	*	*	*	*	*	*	*	*	*	*	*	*	*	*	*	*
16d/LL	16dd\LL	.	8r	.	.	.	8r	.	.	.	8r	.	.	.	8r	.	.	.
!	!	!LO:DY:b:t=ff.:color=black	!	!	!	!	!	!	!	!	!	!	!	!	!	!	!	!
16d/JJ	16dd\JJ	ff	.	.	.	.	.	.	.	.	.	.	.	.	.	.	.	.
=1	=1	=1	=1	=1	=1	=1	=1	=1	=1	=1	=1	=1	=1	=1	=1	=1	=1	=1
8d/L	8dd\L	.	2r	.	.	.	2r	.	.	.	2r	.	.	.	2r	.	.	.
16d/L	16dd\L	.	.	.	.	.	.	.	.	.	.	.	.	.	.	.	.	.
16d/JJ	16dd\JJ	.	.	.	.	.	.	.	.	.	.	.	.	.	.	.	.	.
8f^^</L	8ff^^>\L	.	.	.	.	.	.	.	.	.	.	.	.	.	.	.	.	.
16d/L	16dd\L	.	.	.	.	.	.	.	.	.	.	.	.	.	.	.	.	.
16d/JJ	16dd\JJ	.	.	.	.	.	.	.	.	.	.	.	.	.	.	.	.	.
=2	=2	=2	=2	=2	=2	=2	=2	=2	=2	=2	=2	=2	=2	=2	=2	=2	=2	=2
8d/L	8dd\L	.	2r	.	.	.	2r	.	.	.	2r	.	.	.	2r	.	.	.
16d/L	16dd\L	.	.	.	.	.	.	.	.	.	.	.	.	.	.	.	.	.
16d/JJ	16dd\JJ	.	.	.	.	.	.	.	.	.	.	.	.	.	.	.	.	.
8a^^</L	8aa^^>\L	.	.	.	.	.	.	.	.	.	.	.	.	.	.	.	.	.
16d/L	16dd\L	.	.	.	.	.	.	.	.	.	.	.	.	.	.	.	.	.
16d/JJ	16dd\JJ	.	.	.	.	.	.	.	.	.	.	.	.	.	.	.	.	.
=3	=3	=3	=3	=3	=3	=3	=3	=3	=3	=3	=3	=3	=3	=3	=3	=3	=3	=3
8f^^</L	8ff^^>\L	.	2r	.	.	.	2r	.	.	.	2r	.	.	.	2r	.	.	.
16d/L	16dd\L	.	.	.	.	.	.	.	.	.	.	.	.	.	.	.	.	.
16d/JJ	16dd\JJ	.	.	.	.	.	.	.	.	.	.	.	.	.	.	.	.	.
8A^^</L	8a^^>\L	.	.	.	.	.	.	.	.	.	.	.	.	.	.	.	.	.
16d/L	16dd\L	.	.	.	.	.	.	.	.	.	.	.	.	.	.	.	.	.
16d/JJ	16dd\JJ	.	.	.	.	.	.	.	.	.	.	.	.	.	.	.	.	.
=4	=4	=4	=4	=4	=4	=4	=4	=4	=4	=4	=4	=4	=4	=4	=4	=4	=4	=4
8f^^</L	8ff^^>\L	.	4r	.	.	.	4r	.	.	.	4r	.	.	.	4r	.	.	.
16d/L	16dd\L	.	.	.	.	.	.	.	.	.	.	.	.	.	.	.	.	.
16d/JJ	16dd\JJ	.	.	.	.	.	.	.	.	.	.	.	.	.	.	.	.	.
8a/	8aa^^>\	.	8r	.	.	.	8r	.	.	.	8r	.	.	.	8r	.	.	.
*clefF4	*	*	*2\right	*	*	*	*2\right	*	*	*	*2\right	*	*	*	*2\right	*	*color:red	*
!	!	!	!	!	!	!LO:DY:a:t=f.:rj	!	!	!	!LO:DY:a:t=f.:rj	!	!	!	!LO:DY:a:rj	!	!	!	!LO:DY:a:t=f.:rj
16DLL 16AA 16DD/	16dddLL 16ff 16dd\	.	16d\	Dar-	.	f	16dd\	Dar-	.	f	16dd\	Dar-	.	f	16dd\	Dar-	Va-	f
16DJJ 16AA 16DD/	16dddJJ 16ff 16dd\	.	16d\	-mo	.	.	16dd\	-mo	.	.	16dd\	-mo	.	.	16dd\	-mo	-na	.
!!LO:PB:g=original
=5	=5	=5	=5	=5	=5	=5	=5	=5	=5	=5	=5	=5	=5	=5	=5	=5	=5	=5
8D 8AA 8DD/	(>16dddLL 16ff 16dd^^>\	.	4d^>\	że-	.	.	4dd^>\	że-	.	.	4dd^>\	że-	.	.	4dd^>\	że-	pre-	.
.	16aa\)	.	.	.	.	.	.	.	.	.	.	.	.	.	.	.	.	.
16dLL 16A 16D\	16aa 16ff'>\	.	.	.	.	.	.	.	.	.	.	.	.	.	.	.	.	.
16dJJ 16A 16D\	16aaJJ 16ff'>\	.	.	.	.	.	.	.	.	.	.	.	.	.	.	.	.	.
*	*	*	*	*ij	*	*	*	*ij	*	*	*	*ij	*	*	*	*	*	*
8d 8A 8D\	(>16aaLL 16ff\	.	8A\	-brze,	.	.	8a/	-brze,	.	.	8a/	-brze,	.	.	8a/	-brze,	-ce!	.
.	16ff 16dd\)	.	.	.	.	.	.	.	.	.	.	.	.	.	.	.	.	.
16DLL 16AA 16DD/	16ff 16dd'>\	.	16A\	dar-	.	.	16a/	dar-	.	.	16a/	dar-	.	.	16a/	dar-	vano	.
16DJJ 16AA 16DD/	16ffJJ 16dd'>\	.	16A\	-mo	.	.	16a/	-mo	.	.	16a/	-mo	.	.	16a/	-mo	e'il	.
=6	=6	=6	=6	=6	=6	=6	=6	=6	=6	=6	=6	=6	=6	=6	=6	=6	=6	=6
8D 8AA 8DD/	(>16ff\LL	.	4A^>\	pła-	.	.	4a^</	pła-	.	.	4a^</	pła-	.	.	4a^</	pła-	pian-	.
.	16dd\)	.	.	.	.	.	.	.	.	.	.	.	.	.	.	.	.	.
16dLL 16A 16D\	16ff 16dd'>\	.	.	.	.	.	.	.	.	.	.	.	.	.	.	.	.	.
16dJJ 16A 16D\	16ggJJ 16ee'>\	.	.	.	.	.	.	.	.	.	.	.	.	.	.	.	.	.
8d 8A 8D\	8aa 8ff\	.	8D\	-cze:	.	.	8d/	-cze:	.	.	8d/	-cze:	.	.	8d/	-cze:	-to!	.
16DLL 16AA 16DD/	16dddLL 16aa 16ff 16dd\	.	16d\	my	.	.	16dd\	my	.	.	16dd\	my	.	.	16dd\	my	noi	.
16DJJ 16AA 16DD/	16dddJJ 16aa 16ff 16dd\	.	16d\	tu	.	.	16dd\	tu	.	.	16dd\	tu	.	.	16dd\	tu	che in	.
=7	=7	=7	=7	=7	=7	=7	=7	=7	=7	=7	=7	=7	=7	=7	=7	=7	=7	=7
8D 8AA 8DD/	(>16dddLL 16ff 16dd\	.	4d^>\	czar-	.	.	4dd^>\	czar-	.	.	4dd^>\	czar-	.	.	4dd^>\	czar-	ne-	.
.	16aa\)	.	.	.	.	.	.	.	.	.	.	.	.	.	.	.	.	.
16dLL 16A 16D\	16aa 16ff'>\	.	.	.	.	.	.	.	.	.	.	.	.	.	.	.	.	.
16dJJ 16A 16D\	16aaJJ 16ff'>\	.	.	.	.	.	.	.	.	.	.	.	.	.	.	.	.	.
8d 8A 8D\	(>16aaLL 16ff\	.	8A\	-nym	.	.	8a/	-nym	.	.	8a/	-nym	.	.	8a\	-nym	-ro	.
.	16ff 16dd\)	.	.	.	.	.	.	.	.	.	.	.	.	.	.	.	.	.
16DLL 16AA 16DD/	16ff 16dd'>\	.	16A\	ko-	.	.	16a/	ko-	.	.	16a/	ko-	.	.	16a\	ko-	e tor-	.
16DJJ 16AA 16DD/	16ffJJ 16dd'>\	.	16A\	-ro-	.	.	16a/	-ro-	.	.	16a/	-ro-	.	.	16a\	-ro-	-vo	.
=8	=8	=8	=8	=8	=8	=8	=8	=8	=8	=8	=8	=8	=8	=8	=8	=8	=8	=8
8D 8AA 8DD/	(>16ff\LL	.	4A^>\	-wo-	.	.	4a^</	-wo-	.	.	4a^</	-wo-	.	.	4a^>\	-wo-	scia-	.
.	16dd\)	.	.	.	.	.	.	.	.	.	.	.	.	.	.	.	.	.
16ALL 16D\	16ee 16cc#X'>\	.	.	.	.	.	.	.	.	.	.	.	.	.	.	.	.	.
16AJJ 16D\	16ggJJ 16ee'>\	.	.	.	.	.	.	.	.	.	.	.	.	.	.	.	.	.
8A 8D\	8ff 8dd'>\	.	8F\	-dem,	.	.	8f/	-dem,	.	.	8f/	-dem,	.	.	8f/	-dem,	-me	.
*	*8va	*	*	*	*	*	*	*	*	*	*	*	*	*	*	*	*	*
16FLL 16C 16FF'>\	16fffLL 16aa 16ff\	.	16F\	so-	.	.	16ff\	so-	.	.	16f/	so-	.	.	16ff\	so-	svo-	.
16FJJ 16C 16FF'>\	16fffJJ 16aa 16ff\	.	16F\	-wy,	.	.	16ff\	-wy,	.	.	16f/	-wy,	.	.	16ff\	-wy,	-laz-	.
!!LO:LB:g=original
=9	=9	=9	=9	=9	=9	=9	=9	=9	=9	=9	=9	=9	=9	=9	=9	=9	=9	=9
*	*	*	*	*Xij	*	*	*	*Xij	*	*	*	*Xij	*	*	*	*	*	*
8F 8C 8FF/	(<16fffLL 16aa 16ff/	.	4F^>\	kru-	.	.	4ff^>\	kru-	.	.	4f^</	kru-	.	.	4ff^>\	kru-	-ziamo	.
*	*	*	*	*ij	*	*	*	*ij	*	*	*	*ij	*	*	*	*	*	*
.	16ccc/)	.	.	.	.	.	.	.	.	.	.	.	.	.	.	.	.	.
16cLL 16A 16F 16C\	16ccc 16aa'</	.	.	.	.	.	.	.	.	.	.	.	.	.	.	.	.	.
16cJJ 16A 16F 16C\	16cccJJ 16aa'</	.	.	.	.	.	.	.	.	.	.	.	.	.	.	.	.	.
8c 8A 8F 8C\	(<16cccLL 16aa/	.	8C/	-ki	.	.	8cc\	-ki	.	.	8c/	-ki	.	.	8cc\	-ki	a	.
.	16aa 16ff/)	.	.	.	.	.	.	.	.	.	.	.	.	.	.	.	.	.
16FLL 16C 16FF/	16aa 16ff'</	.	16c\	i	.	.	16cc\	i	.	.	16c/	i	.	.	16cc\	i	te	.
16FJJ 16C 16FF/	16aaJJ 16ff'</	.	16c\	pu-	.	.	16cc\	pu-	.	.	16c/	pu-	.	.	16cc\	pu-	d'ac-	.
=10	=10	=10	=10	=10	=10	=10	=10	=10	=10	=10	=10	=10	=10	=10	=10	=10	=10	=10
8F 8C 8FF/	(<16aa/LL	.	4c^>\	-ha-	.	.	4cc^>\	-ha-	.	.	4c^</	-ha-	.	.	4cc^>\	-ha-	-can-	.
.	16ff/)	.	.	.	.	.	.	.	.	.	.	.	.	.	.	.	.	.
16dLL 16F\	16bb- 16ff'</	.	.	.	.	.	.	.	.	.	.	.	.	.	.	.	.	.
16fJJ 16F\	16dddJJ 16bb-'</	.	.	.	.	.	.	.	.	.	.	.	.	.	.	.	.	.
8c 8A 8F 8C\	8ccc 8aa 8ff'</	.	8F\	-cze,	.	.	8f/	-cze,	.	.	8f/	-cze,	.	.	8f/	-cze,	-to,	.
16FLL 16C 16FF'>\	16fffLL 16aa 16ff\	.	16F\	nie-	.	.	16ff\	nie-	.	.	16f/	nie-	.	.	16ff\	nie-	ser-	.
16FJJ 16C 16FF'>\	16fffJJ 16aa 16ff\	.	16F\	-gdyś	.	.	16ff\	-gdyś	.	.	16f/	-gdyś	.	.	16ff\	-gdyś	-vi	.
=11	=11	=11	=11	=11	=11	=11	=11	=11	=11	=11	=11	=11	=11	=11	=11	=11	=11	=11
8F 8C 8FF'>\	(>16fffLL 16aa 16ff\	.	4F^>\	pan-	.	.	4ff^>\	pan-	.	.	4f^</	pan-	.	.	4ff^>\	pan-	tuoi	.
.	16ccc\)	.	.	.	.	.	.	.	.	.	.	.	.	.	.	.	.	.
16cLL 16A 16F 16C\	16ccc 16aa'>\	.	.	.	.	.	.	.	.	.	.	.	.	.	.	.	.	.
16cJJ 16A 16F 16C\	16cccJJ 16aa'>\	.	.	.	.	.	.	.	.	.	.	.	.	.	.	.	.	.
8c 8A 8F 8C\	(<16cccLL 16aa/	.	8C/	-ku	.	.	8cc\	-ku	.	.	8c/	-ku	.	.	8cc\	-ku	che	.
.	16ff/)	.	.	.	.	.	.	.	.	.	.	.	.	.	.	.	.	.
16FLL 16C 16FF/	16aa'</	.	16c\	słu-	.	.	16cc\	słu-	.	.	16c/	słu-	.	.	16cc\	słu-	sotto	.
16FJJ 16C 16FF/	16aa'</JJ	.	16c\	-gi	.	.	16cc\	-gi	.	.	16c/	-gi	.	.	16cc\	-gi	il	.
=12	=12	=12	=12	=12	=12	=12	=12	=12	=12	=12	=12	=12	=12	=12	=12	=12	=12	=12
*	*^	*	*	*	*	*	*	*	*	*	*	*	*	*	*	*	*	*
!	!	!	!	!	!	!	!	!	!	!	!	!	!	!	!	!LO:TX:B:a:t=A:color=red	!	!	!
8F 8C 8FF/	(<16aa/LL	16ryy	.	4c^>\	two-	.	.	4cc^>\	two-	.	.	8c^</L	two-	.	.	4cc^>\	two-	ba-	.
*	*	*	*	*	*Xij	*	*	*	*Xij	*	*	*	*Xij	*	*	*	*	*	*
.	16ff/)	16ryy	.	.	.	.	.	.	.	.	.	.	.	.	.	.	.	.	.
16c'>\LL	16gg/	8ee\	.	.	.	.	.	.	.	.	.	8f/J	.	.	.	.	.	.	.
16c'>\JJ	16bb-/JJ	.	.	.	.	.	.	.	.	.	.	.	.	.	.	.	.	.	.
*	*v	*v	*	*	*	*	*	*	*	*	*	*	*	*	*	*	*	*	*
*	*X8va	*	*	*	*	*	*	*	*	*	*	*	*	*	*	*	*	*
*	*^	*	*	*	*	*	*	*	*	*	*	*	*	*	*	*	*	*
!	!LO:TX:t=P:problem=mixed beam	!	!	!	!	!	!	!	!	!	!	!	!	!	!	!	!	!	!
8c 8F'>\	(>16aa\LL	16ryy	.	8A\	-je,	.	.	4a/	-je,	.	.	8a/	-je,	.	.	8a/	-je,	-sto	.
.	16a/)	16ryy	.	.	.	.	.	.	.	.	.	.	.	.	.	.	.	.	.
16r	16a'</	16ryy	.	8r	.	.	.	.	.	.	.	8r	.	.	.	8r	.	.	.
!LO:TX:B:b:t=V&colon; S&colon;	!	!	!	!	!	!	!	!	!	!	!	!	!	!	!	!	!	!	!
16A'>\	16a'</JJ	16ryy	.	.	.	.	.	.	.	.	.	.	.	.	.	.	.	.	.
!!LO:PB:g=original
=13	=13	=13	=13	=13	=13	=13	=13	=13	=13	=13	=13	=13	=13	=13	=13	=13	=13	=13	=13
*^	*	*	*	*	*	*	*	*	*	*	*	*	*	*	*	*	*	*	*
*	*	*	*	*	*	*	*	*	*	*	*color:red	*	*	*	*	*	*	*	*	*
8.r	16B-\LL	8.r	(>16g\LL	.	16B-\LL	któ-	.	.	16b-\LL	któ-	mor-	.	4r	.	.	.	4r	.	.	.
.	16A\	.	16f\	.	16A\JJ	.	.	.	16a\JJ	.	.	.	.	.	.	.	.	.	.	.
*	*	*	*	*	*	*ij	*	*	*	*	*	*	*	*	*	*	*	*	*	*
.	16G#X\	.	16e\	.	16G#X\LL	-reś	.	.	16g#X\LL	-reś	-ti	.	.	.	.	.	.	.	.	.
16c#X/	16A\JJ	16a/	16f\JJ)	.	16A\JJ	.	.	.	16a\JJ	.	.	.	.	.	.	.	.	.	.	.
[>4d^^>/	8.D\L	(<16b-^^>/LL	4f\	.	8.B-^>\	ty	.	.	8.dd^>\	ty	siam	.	16b-/LL	któ-	.	.	16b-/LL	któ-	mor-	.
.	.	16a/	.	.	.	.	.	.	.	.	.	.	16a/JJ	.	.	.	16a/JJ	.	.	.
*	*	*	*	*	*	*	*	*	*	*	*	*	*	*ij	*	*	*	*	*	*
.	.	16g#X/	.	.	.	.	.	.	.	.	.	.	16g#X/LL	-reś	.	.	16g#X/LL	-reś	-ti	.
.	16A\Jk	16a/JJ)	.	.	16A\	po-	.	.	16a\	po-	per	.	16a/JJ	.	.	.	16a/JJ	.	.	.
=14	=14	=14	=14	=14	=14	=14	=14	=14	=14	=14	=14	=14	=14	=14	=14	=14	=14	=14	=14	=14
8.d/L]	(>16B-\LL	8.dd/L	16gn\LL	.	16B-\LL	-mo-	.	.	16b-\LL	-mo-	te	.	8.d^>/	ty	.	.	8.dd^>\	ty	siam	.
.	16A\	.	16f\	.	16A\JJ	.	.	.	16a\JJ	.	.	.	.	.	.	.	.	.	.	.
.	16G#X\	.	16e\	.	16G#X\LL	-rzył	.	.	16g#X\LL	-rzył	di	.	.	.	.	.	.	.	.	.
16c#X/Jk	16A\JJ)	16a/Jk	16f\JJ	.	16A\JJ	.	.	.	16a\JJ	.	.	.	16a/	po-	.	.	16a\	po-	per	.
[>4d^^>/	8.D^^<\L	(<16b-/LL	4f\	.	8.B-^>\	gło-	.	.	8.dd^>\	gło-	fa-	.	16b-/LL	-mo-	.	.	16b-\LL	-mo-	te	.
.	.	16a/	.	.	.	.	.	.	.	.	.	.	16a/JJ	.	.	.	16a\JJ	.	.	.
.	.	16g#X/	.	.	.	.	.	.	.	.	.	.	16g#X/LL	-rzył	.	.	16g#X\LL	-rzył	di	.
.	16A\Jk	16a/JJ)	.	.	16A\	-dem,	.	.	16a\	-dem,	-me,	.	16a/JJ	.	.	.	16a\JJ	.	.	.
=15	=15	=15	=15	=15	=15	=15	=15	=15	=15	=15	=15	=15	=15	=15	=15	=15	=15	=15	=15	=15
8.d/]	(>16B-\LL	8.dd/L	(>16gn\LL	.	16B-\LL	któ-	.	.	16b-\LL	któ-	mor-	.	8.d^</	gło-	.	.	8.dd^>\	gło-	fa-	.
.	16A\	.	16f\	.	16A\JJ	.	.	.	16a\JJ	.	.	.	.	.	.	.	.	.	.	.
.	16G#X\	.	16e\	.	16G#X\LL	-reś	.	.	16g#X\LL	-reś	-ti	.	.	.	.	.	.	.	.	.
16c#X/	16A\JJ)	16a/Jk	16f\JJ)	.	16A\JJ	.	.	.	16a\JJ	.	.	.	16a/	-dem,	.	.	16a\	-dem,	-me,	.
8d/L	8D^^>\L	16b-/LL	8f\L	.	8d^>\	ty	.	.	8dd^>\	ty	siam	.	8d^</	któ-	.	.	8f^</	któ-	mor-	.
.	.	16a/	.	.	.	.	.	.	.	.	.	.	.	.	.	.	.	.	.	.
8c#/J	8C^^>\J	16cc 16g/	8e\J	.	8c^>\	po-	.	.	8ee^>\	po-	per	.	8g^</	-reś	.	.	8g^</	-reś	-ti	.
.	.	16b-/JJ	.	.	.	.	.	.	.	.	.	.	.	.	.	.	.	.	.	.
*v	*v	*	*	*	*	*	*	*	*	*	*	*	*	*	*	*	*	*	*	*
*	*v	*v	*	*	*	*	*	*	*	*	*	*	*	*	*	*	*	*	*
=16	=16	=16	=16	=16	=16	=16	=16	=16	=16	=16	=16	=16	=16	=16	=16	=16	=16	=16
8FL 8FF^^</	8ffL 8a^^>\	.	8F^^>\	-mo-	.	.	8ff^^>\	-mo-	te	.	8f^</	ty	.	.	8a^^</	ty	siam	.
8B- 8BB-^^</	8gg 8dd 8g^^>\	.	8B-^^>\	-rzył	.	.	8dd^^>\	-rzył	per	.	8g^</	po-	.	.	8dd^^>\	po-	per	.
8A 8AA^^</	8aa 8ee 8cc#X 8a^^>\	.	8A^^>\	gło-	.	.	8cc#X^^>\	gło-	te	.	8e^</	-mo-	.	.	8ee^^>\	-mo-	te	.
8GJ 8GG^^</	8bb-J 8gg 8dd 8b-^^>\	.	8B-^^>\	-dem,	.	.	8dd^^>\	-dem,	di	.	8g^</	-rzył	.	.	8gg^^>\	-rzył	di	.
*	*	*	*	*Xij	*	*	*	*	*	*	*	*Xij	*	*	*	*	*	*
!!LO:LB:g=original
=17	=17	=17	=17	=17	=17	=17	=17	=17	=17	=17	=17	=17	=17	=17	=17	=17	=17	=17
*2\right	*2\right	*	*	*	*	*	*	*	*	*	*2\right	*	*	*	*2\right	*	*	*
!	!	!LO:DY:b:t=sff.:rj	!	!	!	!	!	!	!	!	!	!	!	!	!	!	!	!
[<2C#X [<2CC#X\	[>2B-< [>2G< [>2E</	sf	[<2BB-X^</	któ-	.	.	2b-^>\	któ-	fa-	.	[<2B-X^>/	któ-	.	.	[>2b-X^>\	gło-	fa-	.
=18	=18	=18	=18	=18	=18	=18	=18	=18	=18	=18	=18	=18	=18	=18	=18	=18	=18	=18
*	*	*	*	*ij	*	*	*	*ij	*	*	*	*	*	*	*	*	*	*
2C#X_< 2CC#\X_<	2B-<] 2G<] 2E</]	.	8BB-/]	-reś	.	.	8b-\	-reś	-me	.	8B-/]	-reś	.	.	4b-\]	-dem,	-me!	.
.	.	.	16BB-/	ty	.	.	16b-\	ty	mor-	.	16B-/	ty	.	.	.	.	.	.
.	.	.	16BB-/	po-	.	.	16b-\	po-	-ti	.	16B-/	po-	.	.	.	.	.	.
.	.	.	8BB-/	-mo-	.	.	8b-\	-mo-	siam	.	8B-/	-mo-	.	.	4r	.	.	.
.	.	.	8BB-/	-rzył	.	.	8b-\	-rzył	di	.	8B-/	-rzył	.	.	.	.	.	.
=19	=19	=19	=19	=19	=19	=19	=19	=19	=19	=19	=19	=19	=19	=19	=19	=19	=19	=19
*^	*	*	*	*	*	*	*	*	*	*	*	*	*	*	*	*	*	*
[>2A [>2E/	2C#X_< 2CC#X\_<	4r	.	2AA/	gło-	.	.	2a\	gło-	fa-	.	2A/	gło-	.	.	2r	.	.	.
*	*	*	*	*	*Xij	*	*	*	*Xij	*	*	*	*	*	*	*	*	*	*
.	.	8r	.	.	.	.	.	.	.	.	.	.	.	.	.	.	.	.	.
!	!	!	!LO:DY:b:t=pp.:rj	!	!	!	!	!	!	!	!	!	!	!	!	!	!	!	!
.	.	16cc#XLL 16c#X'</	pp	.	.	.	.	.	.	.	.	.	.	.	.	.	.	.	.
.	.	16cc#JJ 16c#'</	.	.	.	.	.	.	.	.	.	.	.	.	.	.	.	.	.
=20	=20	=20	=20	=20	=20	=20	=20	=20	=20	=20	=20	=20	=20	=20	=20	=20	=20	=20	=20
4A] 4E/]	4C#] 4CC#\]	8cc#XL 8c#X'</	.	4AA/	-dem,	.	.	4a\	-dem,	-me.	.	4A/	-dem,	.	.	2r	.	.	.
.	.	16cc#L 16c#'</	.	.	.	.	.	.	.	.	.	.	.	.	.	.	.	.	.
.	.	16cc#JJ 16c#'</	.	.	.	.	.	.	.	.	.	.	.	.	.	.	.	.	.
8r	8ryy	8cc# 8c#'</	.	4r	.	.	.	4r	.	.	.	4r	.	.	.	.	.	.	.
*v	*v	*	*	*	*	*	*	*	*	*	*	*	*	*	*	*	*	*	*
*	*8va	*	*	*	*	*	*	*	*	*	*	*	*	*	*	*	*	*
*^	*	*	*	*	*	*	*	*	*	*	*	*	*	*	*	*	*	*
!	!	!LO:TX:i:b:t=Scherz.	!LO:DY:b:t=p.:rj	!	!	!	!	!	!	!	!	!	!	!	!	!	!	!	!
16C#XLL 16FF#X'</	16ryy	16aaaLL 16fff#X'>\	p	.	.	.	.	.	.	.	.	.	.	.	.	.	.	.	.
16C#JJ 16FF#'</	16ryy	16aaaJJ 16fff#'>\	.	.	.	.	.	.	.	.	.	.	.	.	.	.	.	.	.
*kcancel	*kcancel	*kcancel	*	*kcancel	*	*	*	*kcancel	*	*	*	*kcancel	*	*	*	*kcancel	*	*	*
*v	*v	*	*	*	*	*	*	*	*	*	*	*	*	*	*	*	*	*	*
!!LO:PB:g=original
=21	=21	=21	=21	=21	=21	=21	=21	=21	=21	=21	=21	=21	=21	=21	=21	=21	=21	=21
*k[f#c#]	*k[f#c#]	*	*k[f#c#]	*	*	*	*k[f#c#]	*	*	*	*k[f#c#]	*	*	*	*k[f#c#]	*	*	*
!	!LO:TX:i:b:t=Scherz.	!LO:DY:b:t=p.:rj	!	!	!	!LO:DY:a:t=p.:rj	!LO:TX:a:t=P:problem=znaki przykluczowe&colon; bn, f#, cc#	!	!	!LO:DY:a:t=p.:rj	!LO:TX:a:t=P:problem=znaki przykluczowe&colon; bn, f#, cc#	!	!	!LO:DY:a:t=p.:rj	!LO:TX:a:t=P:problem=znaki przykluczowe&colon; bn, f#, cc#	!	!	!LO:DY:a:t=p.:rj
8C# 8FF#'</	(>16aaaLL 16fff#\	p	4F#\	zje-	.	p	4cc#\	zje-	.	p	4f#/	zje-	.	p	4a/	zje-	T'in-	p
.	16fff# 16ccc#\)	.	.	.	.	.	.	.	.	.	.	.	.	.	.	.	.	.
16f#LL 16c# 16A'>\	16fff# 16ccc#'>\	.	.	.	.	.	.	.	.	.	.	.	.	.	.	.	.	.
16f#JJ 16c# 16A'>\	16fff#JJ 16ccc#'>\	.	.	.	.	.	.	.	.	.	.	.	.	.	.	.	.	.
*	*	*	*	*ij	*	*	*	*ij	*	*	*	*ij	*	*	*	*	*	*
8f# 8c# 8A\	(>16fff#LL 16ccc#\	.	8F#\	-my	.	.	8cc#\	-my	.	.	8f#/	-my	.	.	8a/	-my	-vo-	.
.	16ccc# 16aa\)	.	.	.	.	.	.	.	.	.	.	.	.	.	.	.	.	.
16F#LL 16FF#'</	16ccc# 16aa'>\	.	8F#\	po-	.	.	8cc#\	po-	.	.	8f#/	po-	.	.	8a/	po-	-le-	.
16F#JJ 16FF#'</	16eeeJJ 16ccc#'>\	.	.	.	.	.	.	.	.	.	.	.	.	.	.	.	.	.
=22	=22	=22	=22	=22	=22	=22	=22	=22	=22	=22	=22	=22	=22	=22	=22	=22	=22	=22
8BB 8BBB'</	(>16eeeLL 16ccc#\	.	4BB/	-kar-	.	.	(>8.ff#\L	-kar-	.	.	4f#/	-kar-	.	.	4a/	-kar-	-re-	.
.	16ddd#X 16bb\)	.	.	.	.	.	.	.	.	.	.	.	.	.	.	.	.	.
.	8qeee 8qccc#/	.	.	.	.	.	.	.	.	.	.	.	.	.	.	.	.	.
16d#XLL 16B 16A 16F#'>\	16ddd# 16bb'>\	.	.	.	.	.	.	.	.	.	.	.	.	.	.	.	.	.
16eJJ 16B 16A 16F#'>\	16ccc#JJ 16ff#'>\	.	.	.	.	.	16ee\Jk)	.	.	.	.	.	.	.	.	.	.	.
8d# 8B 8A 8F#'>\	8bb\	.	8BB/	-my,	.	.	8dd#X\	-my,	.	.	8f#/	-my,	.	.	8a/	-my,	-mo	.
16BBLL 16EE'</	16gggLL 16eee'>\	.	8E\	wy-	.	.	8b\	wy-	.	.	8e/	wy-	.	.	8g/	wy-	di	.
16BBJJ 16EE'</	16gggJJ 16eee'>\	.	.	.	.	.	.	.	.	.	.	.	.	.	.	.	.	.
=23	=23	=23	=23	=23	=23	=23	=23	=23	=23	=23	=23	=23	=23	=23	=23	=23	=23	=23
8BB 8EE'</	(>16gggLL 16eee\	.	4E\	-pi-	.	.	4ee\	-pi-	.	.	4g/	-pi-	.	.	4g/	-pi-	boc-	.
.	16eee 16bb\)	.	.	.	.	.	.	.	.	.	.	.	.	.	.	.	.	.
16eLL 16B 16G'>\	16eee 16bb'>\	.	.	.	.	.	.	.	.	.	.	.	.	.	.	.	.	.
16eJJ 16B 16G'>\	16eeeJJ 16bb'>\	.	.	.	.	.	.	.	.	.	.	.	.	.	.	.	.	.
8e 8B 8G'>\	(>16eeeLL 16bb\	.	8E\	-jem	.	.	8b\	-jem	.	.	8g/	-jem	.	.	8b\	-jem	-ca	.
.	16bb 16gg\)	.	.	.	.	.	.	.	.	.	.	.	.	.	.	.	.	.
16ELL 16EE'</	16bb 16gg'>\	.	8E\	na-	.	.	8ee\	na-	.	.	8g/	na-	.	.	8dd\	na-	ogni	.
16EJJ 16EE'</	16dddJJ 16bb'>\	.	.	.	.	.	.	.	.	.	.	.	.	.	.	.	.	.
=24	=24	=24	=24	=24	=24	=24	=24	=24	=24	=24	=24	=24	=24	=24	=24	=24	=24	=24
!	!	!	!	!	!	!	!	!	!	!	!	!	!	!	!LO:TX:B:a:t=B:color=red	!	!	!
.	.	.	.	.	.	.	.	.	.	.	.	.	.	.	8qdd/	.	.	.
*	*^	*	*	*	*	*	*	*	*	*	*	*	*	*	*	*	*	*
8AA 8AAA'</	(>16dddLL 16bb\	16ryy	.	4AA/	-po-	.	.	8.ee\L	-po-	.	.	4g/	-po-	.	.	8.cc#\L	-po-	pa-	.
*	*	*	*	*	*Xij	*	*	*	*Xij	*	*	*	*Xij	*	*	*	*	*	*
.	16ccc# 16aa\)	16ryy	.	.	.	.	.	.	.	.	.	.	.	.	.	.	.	.	.
.	8qddd 8qbb/	.	.	.	.	.	.	.	.	.	.	.	.	.	.	.	.	.	.
16c#LL 16A 16G'>\	16ccc# 16aa'>\	16ryy	.	.	.	.	.	.	.	.	.	.	.	.	.	.	.	.	.
16dJJ 16A 16G'>\	16bbJJ 16ee'>\	16ryy	.	.	.	.	.	16dd\Jk	.	.	.	.	.	.	.	16b\Jk	.	.	.
8c# 8A 8G'>\	8aa\	8ryy	.	8AA/	-je,	.	.	8cc#\	-je,	.	.	8g/	-je,	.	.	8a\	-je,	-sto,	.
*	*v	*v	*	*	*	*	*	*	*	*	*	*	*	*	*	*	*	*	*
*	*X8va	*	*	*	*	*	*	*	*	*	*	*	*	*	*	*	*	*
*	*^	*	*	*	*	*	*	*	*	*	*	*	*	*	*	*	*	*
!	!	!	!LO:DY:b:t=pp.:rj	!	!	!	!	!	!	!	!	!	!	!	!	!	!	!	!LO:DY:a:t=pp.:rj
16AALL 16DD'</	16aa/LL	16aaLL 16a\	pp	8r	.	.	.	8r	.	.	.	8r	.	.	.	16a/	zje-	og-	pp
16AAJJ 16DD'</	16aa/JJ	16aaJJ 16a\	.	.	.	.	.	.	.	.	.	.	.	.	.	16a/	-my	-ni	.
!!LO:LB:g=original
=25	=25	=25	=25	=25	=25	=25	=25	=25	=25	=25	=25	=25	=25	=25	=25	=25	=25	=25	=25
*	*	*	*	*	*	*	*	*	*	*	*	*	*	*	*	*	*	*above	*
!	!LO:TX:b:i:t=dolcissimo	!	!	!	!	!	!	!	!	!	!	!	!	!	!	!	!	!	!
8AA 8DD'</	8aa/L	(>16a\LL	.	4r	.	.	.	8r	.	.	.	8r	.	.	.	4a/	po-	pa-	.
.	.	16dd\)	.	.	.	.	.	.	.	.	.	.	.	.	.	.	.	.	.
*	*	*	*	*	*	*	*	*	*	*	*	*	*	*color:red	*	*	*	*	*
!	!	!	!	!	!	!	!	!	!	!	!LO:DY:a:t=pp.:rj	!	!	!	!LO:DY:a:t=pp.:rj	!	!	!	!
16dLL 16A 16F#'>\	16aa/L	16dd'>\	.	.	.	.	.	16a/	zje-	o-	pp	16f#/	zje-	o-	pp	.	.	.	.
16dJJ 16A 16F#'>\	16aa/JJ	16ee'>\JJ	.	.	.	.	.	16a/	-my	-gni	.	16f#/	-my	-gni	.	.	.	.	.
8d 8A 8F#'>\	8aa/L	(>16ee\LL	.	8r	.	.	.	[<4a/	po-	pa-	.	16f#/	po-	pa-	.	8a/	-karm,	-sto in-	.
.	.	16ff#\)	.	.	.	.	.	.	.	.	.	16f#/	-karm,	-sto in-	.	.	.	.	.
*	*	*	*	*	*	*color:red	*	*	*	*	*	*	*	*	*	*	*	*	*
!	!	!	!	!	!	!	!LO:DY:a:t=pp.:rj	!	!	!	!	!	!	!	!	!	!	!	!
16AALL 16DD'</	16aa/L	16ff#\	.	16D\	zje-	del-	pp	.	.	.	.	16f#/	wy-	-vo-	.	16a/	wy-	-vo-	.
16AAJJ 16DD'</	16aa/JJ	16aa\JJ	.	16D\	-my	-la	.	.	.	.	.	16f#/	-pi-	-le-	.	16a/	-pi-	-le-	.
=26	=26	=26	=26	=26	=26	=26	=26	=26	=26	=26	=26	=26	=26	=26	=26	=26	=26	=26	=26
!	!	!	!	!	!	!	!	!	!	!	!	!	!	!	!LO:HP:a	!	!	!	!
8AA 8DD'</	8aa/L	(>16aa\LL	.	[>2D\	po-	boc-	.	8a/]	-karm,	-sto in-	.	(<16g/LL	-je-	-re-	>	4a/	-je-	-re-	.
.	.	16ee\)	.	.	.	.	.	.	.	.	.	16f#/JJ)	.	.	.	.	.	.	.
16eLL 16c# 16A 16G'>\	16aa/L	16ee\	.	.	.	.	.	16a/	wy-	-vo-	.	16e/	-my	-mo	]	.	.	.	.
16eJJ 16c# 16A 16G'>\	16aa/JJ	16a'>\JJ	.	.	.	.	.	16a/	-pi-	-le-	.	16e/	na-	di	.	.	.	.	.
8e 8c# 8A 8G'>\	(<16aa/LL	8a^^>\L	.	.	.	.	.	[<4a/	-je-	-re-	.	(<16g/LL	-po-	boc-	.	8a/	-my,	-mo,	.
.	16ee/)	.	.	.	.	.	.	.	.	.	.	16f#/JJ)	.	.	.	.	.	.	.
16AALL 16DD'</	16aa'/	16a'>\L	.	.	.	.	.	.	.	.	.	8e/	-je,	-ca,	.	16a/	wy-	dal-	.
16AAJJ 16DD'</	16aa'/JJ	16a'>\JJ	.	.	.	.	.	.	.	.	.	.	.	.	.	16a/	-pi-	-la	.
=27	=27	=27	=27	=27	=27	=27	=27	=27	=27	=27	=27	=27	=27	=27	=27	=27	=27	=27	=27
8AA 8DD'</	8aa/L	(>16a\LL	.	4D\]	-karm	-ca	.	8a/]	-my,	-mo	.	8r	.	.	.	4a/	-je-	boc-	.
.	.	16dd\)	.	.	.	.	.	.	.	.	.	.	.	.	.	.	.	.	.
16dLL 16A 16F#'>\	16aa/L	16dd'>\	.	.	.	.	.	16a/	wy-	del-	.	16f#/	zje-	o-	.	.	.	.	.
16dJJ 16A 16F#'>\	16aa/JJ	16ee\JJ	.	.	.	.	.	16a/	-pi-	-la	.	16f#/	-my	-gni	.	.	.	.	.
8d 8A 8F#'>\	8aa/L	(>16ee\LL	.	8r	.	.	.	8a/	-je-	boc-	.	16f#/	po-	pa-	.	8a/	-my	-ca	.
.	.	16ff#\)	.	.	.	.	.	.	.	.	.	16f#/	-karm	-sto	.	.	.	.	.
16AALL 16DD'</	16aa/L	16ff#\	.	16D\	i	o-	.	16a/	-my	-ca	.	16f#/	wy-	invo-	.	8a/	na-	ogni	.
*	*	*	*	*	*	*	*	*	*	*	*	*	*	*	*	*	*	*below	*
!LO:TX:B:b:t=V&colon; S&colon;	!	!	!	!	!	!	!	!	!	!	!	!	!	!	!	!	!	!	!
16AAJJ 16DD'</	16aa/JJ	16aa\JJ	.	16D\	na-	-gni	.	16a/	na-	ogni	.	16f#/	-pi-	-le-	.	.	.	.	.
!!LO:PB:g=original
=28	=28	=28	=28	=28	=28	=28	=28	=28	=28	=28	=28	=28	=28	=28	=28	=28	=28	=28	=28
8AA 8DD'</	8aa/L	(>16aa\LL	.	4A\	-po-	.	.	4a\	po-	pa-	.	(<16g/LL	-je-	-re-	.	4a/	-po-	pa-	.
.	.	16ee\)	.	.	.	.	.	.	.	.	.	16f#/JJ)	.	.	.	.	.	.	.
16eLL 16c# 16A'>\	16aa/L	16ee\	.	.	.	.	.	.	.	.	.	16e/	-my	-mo	.	.	.	.	.
16eJJ 16c# 16A'>\	16aa/JJ	16a'>\JJ	.	.	.	.	.	.	.	.	.	16e/	na-	ogni	.	.	.	.	.
8e 8c# 8A'>\	(<16aa/LL	8a^^>\	.	8A\	-je.	.	.	8a\	-je.	-sto	.	16a/	-po-	pa-	.	8a/	-je.	-sto.	.
.	16ee/JJ)	.	.	.	.	.	.	.	.	.	.	16a/	-je.	-sto	.	.	.	.	.
!LO:TX:a:t=P:problem=2 kropki nad nutą	!	!	!LO:DY:b:t=ff.:rj	!	!	!	!LO:DY:a:t=ff.:rj	!	!	!	!LO:DY:a:t=ff.:rj	!	!	!	!LO:DY:a:t=ff.:rj	!	!	!	!LO:DY:a:t=ff.:rj
16d'>\LL	16ff#LL 16dd 16f#'</	16ryy	ff	8d\	Hej!	.	ff	8dd|>\	Hej!	.	ff	8dd'>\	Hej!	.	ff	8dd\	Hej!	Chi	ff
16d'>\JJ	16ff#JJ 16dd 16f#'</	16ryy	.	.	.	.	.	.	.	.	.	.	.	.	.	.	.	.	.
*	*v	*v	*	*	*	*	*	*	*	*	*	*	*	*	*	*	*	*	*
=29	=29	=29	=29	=29	=29	=29	=29	=29	=29	=29	=29	=29	=29	=29	=29	=29	=29	=29
*	*	*	*	*ij	*	*	*	*ij	*	*	*	*ij	*	*	*	*	*	*
(>16d\LL	8ff#L 8dd 8f#^</	.	(>16d\LL	so-	.	.	(>16dd\LL	so-	.	.	(>16dd\LL	so-	.	.	(>16dd\LL	so-	gu-	.
16c#\)	.	.	16c#\JJ)	.	.	.	16cc#\JJ)	.	.	.	16cc#\JJ)	.	.	.	16cc#\JJ)	.	.	.
!LO:TX:a:t=P:problem=2 kropki nad nutą	!	!	!	!	!	!	!	!	!	!	!	!	!	!	!	!	!	!
16c#'>\	16ff#L 16dd 16f#'</	.	16c#\	-wy,	.	.	16cc#\	-wy,	.	.	16cc#\	-wy,	.	.	16cc#\	-wy,	-fi,	.
16B'>\JJ	16ff#JJ 16dd 16f#'</	.	16B\	pu-	.	.	16b\	pu-	.	.	16b\	pu-	.	.	16b\	pu-	spar-	.
(>16B\LL	8ff#L 8dd 8f#'<^</	.	(>16B\LL	-ha-	.	.	(>16b\LL	-ha-	.	.	(>16b\LL	-ha-	.	.	(>16b\LL	-ha-	-vie-	.
16A#X\)	.	.	16A#X\JJ)	.	.	.	16a#X\JJ)	.	.	.	16a#X\JJ)	.	.	.	16a#X\JJ)	.	.	.
16A#'>\	16ff#L 16dd 16f#'</	.	(>16A#\LL	-cze,	.	.	(>16a#\LL	-cze,	.	.	(>16a#\LL	-cze,	.	.	(>16a#\LL	-cze,	-ri	.
16B'>\JJ	16ff#JJ 16dd 16f#'</	.	16B\JJ)	.	.	.	16b\JJ)	.	.	.	16b\JJ)	.	.	.	16b\JJ)	.	e	.
=30	=30	=30	=30	=30	=30	=30	=30	=30	=30	=30	=30	=30	=30	=30	=30	=30	=30	=30
(>16B\LL	8ff#L 8dd 8f#^</	.	4B^>\	kru-	.	.	4b^>\	kru-	.	.	4b^>\	kru-	.	.	4b^>\	kru-	cor-	.
16F#\)	.	.	.	.	.	.	.	.	.	.	.	.	.	.	.	.	.	.
16F#'>\	16eeL 16dd 16e'</	.	.	.	.	.	.	.	.	.	.	.	.	.	.	.	.	.
16G#X'>\JJ	16eeJJ 16dd 16e'</	.	.	.	.	.	.	.	.	.	.	.	.	.	.	.	.	.
8A'>\	8ee 8cc# 8e'</	.	8An\	-ki!	.	.	8an'>\	-ki!	.	.	8an'>\	-ki!	.	.	8an'>\	-ki!	-vi!	.
16cn'>\LL	16eeLL 16ccn 16e'</	.	8cn|>\	szpo-	.	.	8ccn'>\	szpo-	.	.	8ccn'>\	szpo-	.	.	8ccn'>\	szpo-	col	.
16c'>\JJ	16eeJJ 16cc 16e'</	.	.	.	.	.	.	.	.	.	.	.	.	.	.	.	.	.
!!LO:LB:g=original
=31	=31	=31	=31	=31	=31	=31	=31	=31	=31	=31	=31	=31	=31	=31	=31	=31	=31	=31
(>16cn\LL	8eeL 8ccn 8e^</	.	(>16cn\LL	-na-	.	.	(>16ccn\LL	-na-	.	.	(>16ccn\LL	-na-	bec-	.	(>16ccn\LL	-na-	.	.
16B\)	.	.	16B\JJ)	.	.	.	16b\JJ)	.	.	.	16b\JJ)	.	.	.	16b\JJ)	.	.	.
16B'>\	16eeL 16cc 16e'</	.	16B\	-mi,	.	.	16b\	-mi,	.	.	16b\	-mi,	-co e	.	16b\	-mi,	.	.
16A'>\JJ	16eeJJ 16cc 16e'</	.	16A\	krzy-	.	.	16a\	krzy-	.	.	16a\	krzy-	glio	.	16a\	krzy-	.	.
(>16A'>\LL	8eeL 8cc 8e^</	.	(>16A\LL	-we-	.	.	(>16a\LL	-we-	.	.	(>16a\LL	-we-	guz-	.	(>16a\LL	-we-	.	.
16G#X\)	.	.	16G#X\JJ)	.	.	.	16g#X\JJ)	.	.	.	16g#X\JJ)	.	.	.	16g#X\JJ)	.	.	.
16G#'>\	16eeL 16cc 16e'</	.	(>16G#\LL	-mi	.	.	(>16g#\LL	-mi	.	.	(>16g#\LL	-mi	-zi	.	(>16g#\LL	-mi	.	.
16A'>\JJ	16eeJJ 16cc 16e'</	.	16A\JJ)	.	.	.	16a\JJ)	.	.	.	16a\JJ)	.	ar-	.	16a\JJ)	.	.	.
=32	=32	=32	=32	=32	=32	=32	=32	=32	=32	=32	=32	=32	=32	=32	=32	=32	=32	=32
*	*^	*	*	*	*	*	*	*	*	*	*	*	*	*	*	*	*	*
(>16A\LL	8eeL 8ccn 8e'</	8ryy	.	4A^>\	dzio-	.	.	4a^</	dzio-	.	.	4a^</	dzio-	-ti-	.	4a^</	dzio-	.	.
16E\)	.	.	.	.	.	.	.	.	.	.	.	.	.	.	.	.	.	.	.
16E'>\	16ddL 16cc 16d'</	16ryy	.	.	.	.	.	.	.	.	.	.	.	.	.	.	.	.	.
16F#'>\JJ	16ddJJ 16cc 16d'</	16ryy	.	.	.	.	.	.	.	.	.	.	.	.	.	.	.	.	.
8G'>\	8dd 8b 8d'</	8ryy	.	8Gn|>\	-by,	.	.	8gn|</	-by,	.	.	8gn|</	-by,	-gli,	.	8gn|</	-by,	.	.
8B 8G 8BB'>\	16dd/LL	8g 8d\	.	8B|>\	szar-	.	.	8dd|>\	szar-	.	.	8g|</	szar-	vo-	.	8dd|>\	szar-	.	.
.	16dd/JJ	.	.	.	.	.	.	.	.	.	.	.	.	.	.	.	.	.	.
=33	=33	=33	=33	=33	=33	=33	=33	=33	=33	=33	=33	=33	=33	=33	=33	=33	=33	=33	=33
8AL 8G 8AA'>\	(<16dd/LL	8gL 8e\	.	8A|>\	-paj-	.	.	8ee|>\	-paj-	.	.	8g|</	-paj-	-la-	.	8cc#|>\	-paj-	.	.
.	16cc#/)	.	.	.	.	.	.	.	.	.	.	.	.	.	.	.	.	.	.
8B 8G 8BB'>\	16dd'</	8g 8d\	.	8B|>\	-my	.	.	8dd|>\	-my	.	.	8g|</	-my	-te ad	.	8dd|>\	-my	.	.
.	16dd'</JJ	.	.	.	.	.	.	.	.	.	.	.	.	.	.	.	.	.	.
8A 8G 8AA'>\	(<16dd/LL	8g 8e\	.	8A|>\	ja-	.	.	8ee|>\	ja-	.	.	8g|</	ja-	in	.	8cc#|>\	ja-	.	.
.	16cc#/)	.	.	.	.	.	.	.	.	.	.	.	.	.	.	.	.	.	.
8BJ 8G 8BB'>\	16dd'</	8gJ 8d\	.	8B|>\	-dło	.	.	8dd|>\	-dło	.	.	8g|</	-dło	tra-	.	8dd|>\	-dło	.	.
.	16dd'</JJ	.	.	.	.	.	.	.	.	.	.	.	.	.	.	.	.	.	.
=34	=34	=34	=34	=34	=34	=34	=34	=34	=34	=34	=34	=34	=34	=34	=34	=34	=34	=34	=34
8A|> 8AA\	(<16dd'>/LL	8g 8e\	.	4A^>\	w sztu-	.	.	4ee^>\	w sztu-	.	.	4g^</	w sztu-	-por-	.	4cc#^>\	w sztu-	.	.
.	16cc#/)	.	.	.	.	.	.	.	.	.	.	.	.	.	.	.	.	.	.
!	!	!	!LO:HP:b	!	!	!	!	!	!	!	!	!	!	!	!	!	!	!	!
(>16c#>\LL	(<16cc#/	16ryy	>	.	.	.	.	.	.	.	.	.	.	.	.	.	.	.	.
16e>\JJ	16ee/JJ	16ryy	.	.	.	.	.	.	.	.	.	.	.	.	.	.	.	.	.
8a>\)	8aa/)	8ryy	]	8A\	-ki,	.	.	8ee\	-ki,	.	.	8e/	-ki,	-vi!	.	8ee\	-ki,	.	.
8c#|> 8A 8C#\	16ee'</LL	8a 8e\	.	8c#\	choć-	.	.	8ee\	choć-	.	.	8a/	choć-	Qua-	.	8ee\	choć-	.	.
.	16ee'</JJ	.	.	.	.	.	.	.	.	.	.	.	.	.	.	.	.	.	.
!!LO:PB:g=original
=35	=35	=35	=35	=35	=35	=35	=35	=35	=35	=35	=35	=35	=35	=35	=35	=35	=35	=35	=35
8B|>L 8A 8BB\	(<16ee/LL	8aL 8f#\	.	8B\	-by	.	.	8ff#\	-by	.	.	8a/	-by	-lun-	.	8dd#X\	-by	.	.
.	16dd#X/)	.	.	.	.	.	.	.	.	.	.	.	.	.	.	.	.	.	.
8c#|> 8A 8C#\	16ee'</	8aJ 8e\	.	8c#\	już	.	.	8ee\	już	.	.	8a/	już	-que	.	8ee\	już	.	.
.	16ee'</JJ	.	.	.	.	.	.	.	.	.	.	.	.	.	.	.	.	.	.
8B|> 8A 8BB\	(<16ee/LL	8aL 8f#\	.	8B\	trzy-	.	.	8ff#\	trzy-	.	.	8a/	trzy-	ci-	.	8dd#\	trzy-	.	.
.	16dd#X/)	.	.	.	.	.	.	.	.	.	.	.	.	.	.	.	.	.	.
8c#|>J 8A 8C#\	16ee'</	8aJ 8e\	.	8c#\	-mał	.	.	8ee\	-mał	.	.	8a/	-mał	-bo ad	.	8ee\	-mał	.	.
.	16ee'</JJ	.	.	.	.	.	.	.	.	.	.	.	.	.	.	.	.	.	.
=36	=36	=36	=36	=36	=36	=36	=36	=36	=36	=36	=36	=36	=36	=36	=36	=36	=36	=36	=36
8B 8BB\	(<16ee/LL	8a 8f#\	.	4B^>\	w gę-	.	.	4ff#^>\	w gę-	.	.	4b^>\	w gę-	doc-	.	4dd#X^>\	w gę-	.	.
.	16dd#X/)	.	.	.	.	.	.	.	.	.	.	.	.	.	.	.	.	.	.
!	!	!	!LO:HP:b	!	!	!	!	!	!	!	!	!	!	!	!	!	!	!	!
(>16d#X>\LL	(<16dd#/	16ryy	>	.	.	.	.	.	.	.	.	.	.	.	.	.	.	.	.
16f#>\JJ	16ff#/JJ	16ryy	.	.	.	.	.	.	.	.	.	.	.	.	.	.	.	.	.
8b>\)	8bb/)	8ryy	]	8B\	-bie,	.	.	8b\	-bie,	.	.	8b\	-bie,	-chi	.	8ff#\	-bie,	.	.
8d#X|> 8B 8D#X\	16aa/L	8ff# 8b\	.	8B\	i	.	.	8dd#X\	i	.	.	8a\	i	da	.	8ff#\	i	.	.
.	16aa/J	.	.	.	.	.	.	.	.	.	.	.	.	.	.	.	.	.	.
=37	=37	=37	=37	=37	=37	=37	=37	=37	=37	=37	=37	=37	=37	=37	=37	=37	=37	=37	=37
8e|>L 8B 8E\	(<16aa/LL	8eeL 8b\	.	8B\	tam	.	.	8ee\	tam	.	.	8g#X/	tam	noi	.	8ee\	tam	.	.
.	16gg#X/)	.	.	.	.	.	.	.	.	.	.	.	.	.	.	.	.	.	.
8d#|>X 8B 8D#X\	16aa/	8ff# 8b\	.	8B\	szpo-	.	.	8dd#X\	szpo-	.	.	8a/	szpo-	gli	.	8ff#\	szpo-	.	.
.	16aa/JJ	.	.	.	.	.	.	.	.	.	.	.	.	.	.	.	.	.	.
8e|> 8B 8E\	(<16aa/LL	8ee 8b\	.	8B\	-nę	.	.	8ee\	-nę	.	.	8g#/	-nę	si	.	8ee\	-nę	.	.
.	16gg#/)	.	.	.	.	.	.	.	.	.	.	.	.	.	.	.	.	.	.
8d#|>J 8B 8D#\	16aa/	8ff#J 8b\	.	8B\	za-	.	.	8dd#\	za-	.	.	8a/	za-	aggher-	.	8ff#\	za-	.	.
.	16aa/JJ	.	.	.	.	.	.	.	.	.	.	.	.	.	.	.	.	.	.
=38	=38	=38	=38	=38	=38	=38	=38	=38	=38	=38	=38	=38	=38	=38	=38	=38	=38	=38	=38
8e|> 8B 8E\	(<16aa/LL	8ee 8b\	.	4E^>\	-głę-	.	.	4ee^>\	-głę-	.	.	4g#X^>/	-głę-	-mi-	.	4ee^>\	-głę-	.	.
.	16gg#X/)	.	.	.	.	.	.	.	.	.	.	.	.	.	.	.	.	.	.
!	!	!	!LO:HP:b	!	!	!	!	!	!	!	!	!	!	!	!	!	!	!	!
(>16b>\LL	(<16bb/	16ryy	>	.	.	.	.	.	.	.	.	.	.	.	.	.	.	.	.
16g#X>JJ	16gg#/JJ	16ryy	.	.	.	.	.	.	.	.	.	.	.	.	.	.	.	.	.
8e>\)	8ee/)	8ryy	]	8E\	-bię,	.	.	8e/	-bię,	.	.	8e/	-bię,	-gli!	.	8ee\	-bię,	.	.
!	!	!	!LO:DY:b:t=ff.:rj	!	!	!	!LO:DY:a:t=ff.:rj	!	!	!	!LO:DY:a:t=ff.:rj	!	!	!	!LO:DY:a:t=ff.:rj	!	!	!	!LO:DY:a:t=ff.:rj
8AA 8AAA^^</	8aa 8cc# 8a^^>\	8ryy	ff	8A\	do-	.	ff	8cc#\	do-	.	ff	8a/	do-	quel	ff	8ee\	do-	.	ff
*	*v	*v	*	*	*	*	*	*	*	*	*	*	*	*	*	*	*	*	*
!!LO:LB:g=original
=39	=39	=39	=39	=39	=39	=39	=39	=39	=39	=39	=39	=39	=39	=39	=39	=39	=39	=39
8C#L 8CC#^^>/	8eeL 8a^^>\	.	(>8c#^>\L	-sta-	.	.	(>8ee^>\L	-sta-	.	.	4a^</	sta-	.	.	4ee^>\	-sta-	l'em-	.
8D 8DD^^>/	8ff# 8dd 8a^^>\	.	8d\J)	.	.	.	8ff#\J)	.	.	.	.	.	.	.	.	.	.	.
8BB 8BBB^^>/	8dd 8a^^>\	.	8B\	-nę	.	.	8ff#\	-nę	.	.	8a/	-nę	.	.	8dd\	-nę	-pio,	.
8EJ 8EE^^>/	8bJ 8g#X^^>\	.	8E\	aż	.	.	8ee\	aż	.	.	8g#X/	aż	.	.	8b\	aż	quell'	.
=40	=40	=40	=40	=40	=40	=40	=40	=40	=40	=40	=40	=40	=40	=40	=40	=40	=40	=40
8AA 8AAA^^>/	(>16cc#LL 16a^^>\	.	8A\	do	.	.	8cc#\	do	.	.	8a/	do	.	.	8cc#\	do	em-	.
.	16ee\	.	.	.	.	.	.	.	.	.	.	.	.	.	.	.	.	.
!	!	!LO:HP:b=2	!	!	!	!	!	!	!	!	!	!	!	!	!	!	!	!
(>16A\LL	16aa\	>	8E\	wą-	.	.	8a\	wą-	.	.	8a/	wą-	.	.	8a\	wą-	-pio	.
16c#\JJ	16ccc#\JJ	.	.	.	.	.	.	.	.	.	.	.	.	.	.	.	.	.
8e\)	8eee\)	]	8C#/	-tro-	.	.	8cc#\	-tro-	.	.	8cc#\	-tro-	.	.	8cc#\	-tro-	onte	.
8F# 8FF#^^>/	8aa 8cc# 8a^^>\	.	8C#/	-by,	.	.	8cc#\	-by,	.	.	8cc#\	-by,	.	.	8cc#\	-by,	nol	.
=41	=41	=41	=41	=41	=41	=41	=41	=41	=41	=41	=41	=41	=41	=41	=41	=41	=41	=41
8C#L 8CC#^^>/	8eeL 8a^^>\	.	(<8C#^>/L	aż	.	.	(>8ee^>\L	aż	.	.	4a^</	aż	.	.	4ee^>\	aż	toc-	.
8D 8DD^^>/	8ff# 8a^^>\	.	8D/J)	.	.	.	8ff#\J)	.	.	.	.	.	.	.	.	.	.	.
8BB 8BBB^^>/	8dd 8a^^>\	.	8BB/	do	.	.	8ff#\	do	.	.	8f#/	do	.	.	8dd\	do	-chi,	.
8EJ 8EE^^>/	8bJ 8g#X^^>\	.	8E\	wą-	.	.	8ee\	wą-	.	.	8g#X/	wą-	.	.	8b\	wą-	nol	.
=42	=42	=42	=42	=42	=42	=42	=42	=42	=42	=42	=42	=42	=42	=42	=42	=42	=42	=42
!	!	!	!	!	!	!	!	!	!	!	!	!	!	!	!LO:TX:B:a:t=C:color=red	!	!	!
8AA 8AAA/	8a/	.	2AA^</	-tro-	.	.	2a^</	-tro-	.	.	2a^</	-tro-	.	.	2a^</	-tro-	toc-	.
*	*	*	*	*Xij	*	*	*	*Xij	*	*	*	*Xij	*	*	*	*	*	*
16AA|</LL	8r	.	.	.	.	.	.	.	.	.	.	.	.	.	.	.	.	.
16AAA|</JJ	.	.	.	.	.	.	.	.	.	.	.	.	.	.	.	.	.	.
(<16AA/LL	4r	.	.	.	.	.	.	.	.	.	.	.	.	.	.	.	.	.
16GG#X/)	.	.	.	.	.	.	.	.	.	.	.	.	.	.	.	.	.	.
16AA|</	.	.	.	.	.	.	.	.	.	.	.	.	.	.	.	.	.	.
!LO:TX:B:b:t=V&colon; S&colon;	!	!	!	!	!	!	!	!	!	!	!	!	!	!	!	!	!	!
16AAA|</JJ	.	.	.	.	.	.	.	.	.	.	.	.	.	.	.	.	.	.
!!LO:PB:g=original
=43	=43	=43	=43	=43	=43	=43	=43	=43	=43	=43	=43	=43	=43	=43	=43	=43	=43	=43
(<16AA/LL	(<16A/LL	.	8AA/	-by.	.	.	8a/	-by.	chi.	.	8a/	-by.	.	.	8a/	-by.	-chi.	.
16GG#X/)	16G#X/)	.	.	.	.	.	.	.	.	.	.	.	.	.	.	.	.	.
16AA'</	16A'</	.	8r	.	.	.	8r	.	.	.	8r	.	.	.	8r	.	.	.
16AAA'</JJ	16A'</JJ	.	.	.	.	.	.	.	.	.	.	.	.	.	.	.	.	.
*rep	*rep	*	*	*	*	*	*	*	*	*	*	*	*	*	*	*	*	*
!	!	!	!	!	!	!	!	!	!	!LO:DY:a:t=p.:rj	!	!	!	!	!	!	!	!LO:DY:a:t=p.:rj
(<16AA/LL	(<16A/LL	.	4r	.	.	.	4a/	Nie	I-	p	4r	.	.	.	4a/	Nie	I-	p
16GG#/)	16G#/)	.	.	.	.	.	.	.	.	.	.	.	.	.	.	.	.	.
16AA'</	16A'</	.	.	.	.	.	.	.	.	.	.	.	.	.	.	.	.	.
16AAA'</JJ	16A'</JJ	.	.	.	.	.	.	.	.	.	.	.	.	.	.	.	.	.
*Xrep	*Xrep	*	*	*	*	*	*	*	*	*	*	*	*	*	*	*	*	*
=44	=44	=44	=44	=44	=44	=44	=44	=44	=44	=44	=44	=44	=44	=44	=44	=44	=44	=44
(<16C#/LL	(<16c#/LL	.	2r	.	.	.	2ee\	zna-	-gno-	.	2r	.	.	.	2ee\	zna-	-gno-	.
16BB#X/)	16B#X/)	.	.	.	.	.	.	.	.	.	.	.	.	.	.	.	.	.
16C#'</	16c#'</	.	.	.	.	.	.	.	.	.	.	.	.	.	.	.	.	.
16CC#'</JJ	16c#'</JJ	.	.	.	.	.	.	.	.	.	.	.	.	.	.	.	.	.
*rep	*rep	*	*	*	*	*	*	*	*	*	*	*	*	*	*	*	*	*
(<16C#/LL	(<16c#/LL	.	.	.	.	.	.	.	.	.	.	.	.	.	.	.	.	.
16BB#/)	16B#/)	.	.	.	.	.	.	.	.	.	.	.	.	.	.	.	.	.
16C#'</	16c#'</	.	.	.	.	.	.	.	.	.	.	.	.	.	.	.	.	.
16CC#'</JJ	16c#'</JJ	.	.	.	.	.	.	.	.	.	.	.	.	.	.	.	.	.
*Xrep	*Xrep	*	*	*	*	*	*	*	*	*	*	*	*	*	*	*	*	*
=45	=45	=45	=45	=45	=45	=45	=45	=45	=45	=45	=45	=45	=45	=45	=45	=45	=45	=45
*rep	*rep	*	*	*	*	*	*	*	*	*	*	*	*	*	*	*	*	*
(<16C#/LL	(<16c#/LL	.	8r	.	.	.	8cc#\	-łeś...	-ta	.	8r	.	.	.	8cc#\	-łeś...	-ta	.
16BB#X/)	16B#X/)	.	.	.	.	.	.	.	.	.	.	.	.	.	.	.	.	.
!	!	!	!	!	!	!LO:DY:a:t=p.:rj	!	!	!	!	!	!	!	!LO:DY:a:t=p.:rj	!	!	!	!
16C#'</	16c#'</	.	8A\	...li-	ti	p	8r	.	.	.	8a/	...li-	ti	p	8r	.	.	.
16CC#'</JJ	16c#'</JJ	.	.	.	.	.	.	.	.	.	.	.	.	.	.	.	.	.
*Xrep	*Xrep	*	*	*	*	*	*	*	*	*	*	*	*	*	*	*	*	*
*rep	*rep	*	*	*	*	*	*	*	*	*	*	*	*	*	*	*	*	*
(<16C#/LL	(<16c#/LL	.	8E\	-toś-	fu	.	4r	.	.	.	8e/	-toś-	fu	.	4r	.	.	.
16BB#/)	16B#/)	.	.	.	.	.	.	.	.	.	.	.	.	.	.	.	.	.
16C#'</	16c#'</	.	8C#\	-ći	cle-	.	.	.	.	.	8c#/	-ci	cle-	.	.	.	.	.
16CC#'</JJ	16c#'</JJ	.	.	.	.	.	.	.	.	.	.	.	.	.	.	.	.	.
*Xrep	*Xrep	*	*	*	*	*	*	*	*	*	*	*	*	*	*	*	*	*
=46	=46	=46	=46	=46	=46	=46	=46	=46	=46	=46	=46	=46	=46	=46	=46	=46	=46	=46
16AA\LL	(<16eLL 16c#/	.	2AA/	pa-	-men-	.	2r	.	.	.	2A/	pa-	-men-	.	2r	.	.	.
32BB\L	16d#X 16B#X/)	.	.	.	.	.	.	.	.	.	.	.	.	.	.	.	.	.
32C#\	.	.	.	.	.	.	.	.	.	.	.	.	.	.	.	.	.	.
32D\	16e 16c#'</	.	.	.	.	.	.	.	.	.	.	.	.	.	.	.	.	.
32E\	.	.	.	.	.	.	.	.	.	.	.	.	.	.	.	.	.	.
32F#\	16eJJ 16c#'</	.	.	.	.	.	.	.	.	.	.	.	.	.	.	.	.	.
32G#X\JJJ	.	.	.	.	.	.	.	.	.	.	.	.	.	.	.	.	.	.
!	!LO:TX:t=P:problem=mixed beam	!	!	!	!	!	!	!	!	!	!	!	!	!	!	!	!	!
(<16F#\LL	16A</LL	.	.	.	.	.	.	.	.	.	.	.	.	.	.	.	.	.
16G#X\)	32B#</L	.	.	.	.	.	.	.	.	.	.	.	.	.	.	.	.	.
.	32c#</	.	.	.	.	.	.	.	.	.	.	.	.	.	.	.	.	.
!LO:TX:b=2:t=cres-cen-do.:dur=9s:ext=ud:problem=text with extention lines	!	!	!	!	!	!	!	!	!	!	!	!	!	!	!	!	!	!
16A'>\	32d#\	.	.	.	.	.	.	.	.	.	.	.	.	.	.	.	.	.
.	32e\	.	.	.	.	.	.	.	.	.	.	.	.	.	.	.	.	.
16c#JJ 16A'>\	32f#\	.	.	.	.	.	.	.	.	.	.	.	.	.	.	.	.	.
.	32g#X\JJJ	.	.	.	.	.	.	.	.	.	.	.	.	.	.	.	.	.
!!LO:LB:g=original
=47	=47	=47	=47	=47	=47	=47	=47	=47	=47	=47	=47	=47	=47	=47	=47	=47	=47	=47
*^	*	*	*	*	*	*	*	*	*	*	*	*	*	*	*	*	*	*
*	*	*	*	*	*	*	*	*	*	*	*	*	*	*above	*	*	*	*	*
4c# 4A/	(>16E\LL	16a\LL	.	8AA/	-nie!	-za!	.	4r	.	.	.	8A/	-nie!	-za!	.	4r	.	.	.
*	*	*	*	*	*	*	*	*	*	*	*	*	*	*below	*	*	*	*	*
!	!	!	!LO:HP:b	!	!	!	!	!	!	!	!	!	!	!	!	!	!	!	!
.	16D#X\)	32b\L	<	.	.	.	.	.	.	.	.	.	.	.	.	.	.	.	.
.	.	32cc#\	.	.	.	.	.	.	.	.	.	.	.	.	.	.	.	.	.
.	16E'>\	32dd\	.	8r	.	.	.	.	.	.	.	8r	.	.	.	.	.	.	.
.	.	32ee\	.	.	.	.	.	.	.	.	.	.	.	.	.	.	.	.	.
.	16E'>\JJ	32ff#\	.	.	.	.	.	.	.	.	.	.	.	.	.	.	.	.	.
.	.	32gg#X\JJJ	.	.	.	.	.	.	.	.	.	.	.	.	.	.	.	.	.
(>16ALL 16C#\	16ryy	16aa\LL	.	4A\	nie	.	.	4a/	nie	I-	.	4a/	-nie	.	.	4a/	nie	I-	.
16G#X 16BB#X\)	16ryy	32bb\L	.	.	.	.	.	.	.	.	.	.	.	.	.	.	.	.	.
.	.	32ccc#\	.	.	.	.	.	.	.	.	.	.	.	.	.	.	.	.	.
16A 16C#'>\	16ryy	32ddd\	.	.	.	.	.	.	.	.	.	.	.	.	.	.	.	.	.
.	.	32eee\	.	.	.	.	.	.	.	.	.	.	.	.	.	.	.	.	.
16AJJ 16C#'>\	16ryy	32fff#\	.	.	.	.	.	.	.	.	.	.	.	.	.	.	.	.	.
.	.	32ggg#X\JJJ	[	.	.	.	.	.	.	.	.	.	.	.	.	.	.	.	.
*v	*v	*	*	*	*	*	*	*	*	*	*	*	*	*	*	*	*	*	*
=48	=48	=48	=48	=48	=48	=48	=48	=48	=48	=48	=48	=48	=48	=48	=48	=48	=48	=48
*	*	*^	*	*	*	*	*	*	*	*	*	*	*	*	*	*	*	*
*	*8va	*	*	*	*	*	*	*	*	*	*	*	*	*	*	*	*	*	*
*tremolo	*tremolo	*	*	*	*	*	*	*	*	*	*	*	*	*	*	*	*	*	*
!	!	!LO:DY:b:t=fff.:rj	!LO:DY:b=2:t=fff.:rj	!	!	!	!LO:DY:a:t=fff.:rj	!	!	!	!LO:DY:a:t=fff.:rj	!	!	!	!LO:DY:a:t=fff.:rj	!	!	!	!LO:DY:a:t=fff.:rj
32EELLL 32AAA/	32aaaLLL 32eee 32ccc#\	fff	fff	2c#\	zna-	.	fff	2ee\	zna-	-gno-	fff	2a/	zna-	.	fff	2aa 2ee\	zna-	-gno-	fff
32AA/	32aa\	.	.	.	.	.	.	.	.	.	.	.	.	.	.	.	.	.	.
32EE 32AAA/	32aaa 32eee 32ccc#\	.	.	.	.	.	.	.	.	.	.	.	.	.	.	.	.	.	.
32AA/	32aa\	.	.	.	.	.	.	.	.	.	.	.	.	.	.	.	.	.	.
32EE 32AAA/	32aaa 32eee 32ccc#\	.	.	.	.	.	.	.	.	.	.	.	.	.	.	.	.	.	.
32AA/	32aa\	.	.	.	.	.	.	.	.	.	.	.	.	.	.	.	.	.	.
32EE 32AAA/	32aaa 32eee 32ccc#\	.	.	.	.	.	.	.	.	.	.	.	.	.	.	.	.	.	.
32AA/	32aa\	.	.	.	.	.	.	.	.	.	.	.	.	.	.	.	.	.	.
32EE 32AAA/	32aaa 32eee 32ccc#\	.	.	.	.	.	.	.	.	.	.	.	.	.	.	.	.	.	.
32AA/	32aa\	.	.	.	.	.	.	.	.	.	.	.	.	.	.	.	.	.	.
32EE 32AAA/	32aaa 32eee 32ccc#\	.	.	.	.	.	.	.	.	.	.	.	.	.	.	.	.	.	.
32AA/	32aa\	.	.	.	.	.	.	.	.	.	.	.	.	.	.	.	.	.	.
32EE 32AAA/	32aaa 32eee 32ccc#\	.	.	.	.	.	.	.	.	.	.	.	.	.	.	.	.	.	.
32AA/	32aa\	.	.	.	.	.	.	.	.	.	.	.	.	.	.	.	.	.	.
32EE 32AAA/	32aaa 32eee 32ccc#\	.	.	.	.	.	.	.	.	.	.	.	.	.	.	.	.	.	.
32AA/JJJ	32aa\JJJ	.	.	.	.	.	.	.	.	.	.	.	.	.	.	.	.	.	.
*	*Xtremolo	*	*	*	*	*	*	*	*	*	*	*	*	*	*	*	*	*	*
*	*	*v	*v	*	*	*	*	*	*	*	*	*	*	*	*	*	*	*	*
=49	=49	=49	=49	=49	=49	=49	=49	=49	=49	=49	=49	=49	=49	=49	=49	=49	=49	=49
*rep	*	*	*	*	*	*	*	*	*	*	*	*	*	*	*	*	*	*
32EELLL 32AAA/	8eee\	.	8c#\	-łeś	.	.	8cc#\	-łeś	-ta	.	8a/	-łeś	.	.	8ee\	-łeś	-ta	.
32AA/	.	.	.	.	.	.	.	.	.	.	.	.	.	.	.	.	.	.
32EE 32AAA/	.	.	.	.	.	.	.	.	.	.	.	.	.	.	.	.	.	.
32AA/	.	.	.	.	.	.	.	.	.	.	.	.	.	.	.	.	.	.
*	*X8va	*	*	*	*	*	*	*	*	*	*	*	*	*	*	*	*	*
32EE 32AAA/	16ccc#\LL	.	8A\	li-	.	.	8a\	li-	ti	.	16cc#\LL	li-	.	.	16cc#\LL	li-	ti	.
32AA/	.	.	.	.	.	.	.	.	.	.	.	.	.	.	.	.	.	.
32EE 32AAA/	16aa\JJ	.	.	.	.	.	.	.	.	.	16a\JJ	.	.	.	16a\JJ	.	.	.
32AA/	.	.	.	.	.	.	.	.	.	.	.	.	.	.	.	.	.	.
32EE 32AAA/	8ee\L	.	8E\	-toś-	.	.	8ee\	-toś-	fu	.	8e/	-toś-	.	.	8e/	-toś-	fu	.
32AA/	.	.	.	.	.	.	.	.	.	.	.	.	.	.	.	.	.	.
32EE 32AAA/	.	.	.	.	.	.	.	.	.	.	.	.	.	.	.	.	.	.
32AA/	.	.	.	.	.	.	.	.	.	.	.	.	.	.	.	.	.	.
32EE 32AAA/	8cc#\J	.	8C#\	-ći	.	.	8cc#\	-ći	cle-	.	8c#/	-ci	.	.	8e 8c#/	-ći	cle-	.
32AA/	.	.	.	.	.	.	.	.	.	.	.	.	.	.	.	.	.	.
32EE 32AAA/	.	.	.	.	.	.	.	.	.	.	.	.	.	.	.	.	.	.
32AA/JJJ	.	.	.	.	.	.	.	.	.	.	.	.	.	.	.	.	.	.
*Xrep	*	*	*	*	*	*	*	*	*	*	*	*	*	*	*	*	*	*
*Xtremolo	*	*	*	*	*	*	*	*	*	*	*	*	*	*	*	*	*	*
=50	=50	=50	=50	=50	=50	=50	=50	=50	=50	=50	=50	=50	=50	=50	=50	=50	=50	=50
!	!	!LO:HP:b	!	!	!	!	!	!	!	!	!	!	!	!	!LO:TX:B:a:t=D:color=red	!	!	!
(<16AA/LL	[>2a/	>	2AA/	pa-	.	.	2a/	pa-	-men-	.	2A/	pa-	.	.	2a 2A/	pa-	-men-	.
16GG#X/)	.	.	.	.	.	.	.	.	.	.	.	.	.	.	.	.	.	.
16AA'</	.	.	.	.	.	.	.	.	.	.	.	.	.	.	.	.	.	.
16AAA'</JJ	.	.	.	.	.	.	.	.	.	.	.	.	.	.	.	.	.	.
*rep	*	*	*	*	*	*	*	*	*	*	*	*	*	*	*	*	*	*
(<16AA/LL	.	.	.	.	.	.	.	.	.	.	.	.	.	.	.	.	.	.
16GG#X/)	.	.	.	.	.	.	.	.	.	.	.	.	.	.	.	.	.	.
16AA'</	.	.	.	.	.	.	.	.	.	.	.	.	.	.	.	.	.	.
16AAA'</JJ	.	]	.	.	.	.	.	.	.	.	.	.	.	.	.	.	.	.
*Xrep	*	*	*	*	*	*	*	*	*	*	*	*	*	*	*	*	*	*
!!LO:PB:g=original
=51	=51	=51	=51	=51	=51	=51	=51	=51	=51	=51	=51	=51	=51	=51	=51	=51	=51	=51
!	!LO:TX:a:t=P:problem=łigatura kończy się skierowana w dół	!	!	!	!	!	!	!	!	!	!	!	!	!	!	!	!	!
(<16AA/LL	4.a/]	.	8AA/	-nie!	.	.	8a/	nie!	-za!	.	8A/	-nie!	.	.	8A/	-nie!	-za!	.
16GG#X/)	.	.	.	.	.	.	.	.	.	.	.	.	.	.	.	.	.	.
16AA'</	.	.	8r	.	.	.	8r	.	.	.	8r	.	.	.	8r	.	.	.
16AAA'</JJ	.	.	.	.	.	.	.	.	.	.	.	.	.	.	.	.	.	.
*rep	*	*	*	*	*	*	*	*	*	*	*	*	*	*	*	*	*	*
(<16AA/LL	.	.	8r	.	.	.	8r	.	.	.	4r	.	.	.	4r	.	.	.
16GG#/)	.	.	.	.	.	.	.	.	.	.	.	.	.	.	.	.	.	.
!	!	!LO:DY:b:t=p.:color=black	!	!	!	!	!	!	!	!LO:DY:a:t=p.:rj	!	!	!	!	!	!	!	!
!	!	!	!	!	!	!LO:DY:a:t=p.:rj	!	!	!	!	!	!	!	!	!	!	!	!
16AA'</	8a/	p	8A\	I	.	p	8a/	I	Noi	p	.	.	.	.	.	.	.	.
16AAA'</JJ	.	.	.	.	.	.	.	.	.	.	.	.	.	.	.	.	.	.
*Xrep	*	*	*	*	*	*	*	*	*	*	*	*	*	*	*	*	*	*
=52	=52	=52	=52	=52	=52	=52	=52	=52	=52	=52	=52	=52	=52	=52	=52	=52	=52	=52
*rep	*	*	*	*	*	*	*	*	*	*	*	*	*	*	*	*	*	*
!	!LO:TX:a:t=P:problem=diminuendolike accent	!	!	!	!	!	!	!	!	!	!	!	!	!	!	!	!	!
(<16AA/LL	(<8g#XL 8fn 8d^</	.	(>8B-X^>\L	my	.	.	(<8b-X^>/L	my	pur	.	4r	.	.	.	4r	.	.	.
16GG#X/)	.	.	.	.	.	.	.	.	.	.	.	.	.	.	.	.	.	.
16AA'</	8aJ 8e 8c#/)	.	8A\J)	.	.	.	8a/J)	.	.	.	.	.	.	.	.	.	.	.
16AAA'</JJ	.	.	.	.	.	.	.	.	.	.	.	.	.	.	.	.	.	.
*	*rep	*	*	*	*	*	*	*	*	*	*	*	*	*	*	*	*	*
(<16AA/LL	(<8g#L 8f 8d^</	.	4r	.	.	.	4r	.	.	.	8r	.	.	.	8r	.	.	.
16GG#/)	.	.	.	.	.	.	.	.	.	.	.	.	.	.	.	.	.	.
!	!	!	!	!	!	!	!	!	!	!	!	!	!	!LO:DY:a:t=p.:rj	!	!	!	!LO:DY:a:t=p.:rj
16AA'</	8aJ 8e 8c#/)	.	.	.	.	.	.	.	.	.	8a/	I	.	p	8a/	I	Noi	p
16AAA'</JJ	.	.	.	.	.	.	.	.	.	.	.	.	.	.	.	.	.	.
*Xrep	*Xrep	*	*	*	*	*	*	*	*	*	*	*	*	*	*	*	*	*
=53	=53	=53	=53	=53	=53	=53	=53	=53	=53	=53	=53	=53	=53	=53	=53	=53	=53	=53
*rep	*rep	*	*	*	*	*	*	*	*	*	*	*	*	*	*	*	*	*
!	!	!	!	!	!	!	!	!	!	!	!	!	!	!LO:HP:a	!	!	!	!LO:HP:a
(<16AA/LL	(<8g#XL 8fn 8d^</	.	4r	.	.	.	4r	.	.	.	(<8g#X/L	my	.	>	(<8g#X/L	my...	pur...	>
16GG#X/)	.	.	.	.	.	.	.	.	.	.	.	.	.	.	.	.	.	.
16AA'</	8aJ 8e 8c#/)	.	.	.	.	.	.	.	.	.	8a/J)	.	.	]]	8a/J)	.	.	]
16AAA'</JJ	.	.	.	.	.	.	.	.	.	.	.	.	.	.	.	.	.	.
*	*Xrep	*	*	*	*	*	*	*	*	*	*	*	*	*	*	*	*	*
*	*rep	*	*	*	*	*	*	*	*	*	*	*	*	*	*	*	*	*
(<16AA/LL	(<8g#L 8f 8d^</	.	8r	.	.	.	8r	.	.	.	4r	.	.	.	4r	.	.	.
16GG#/)	.	.	.	.	.	.	.	.	.	.	.	.	.	.	.	.	.	.
16AA'</	8aJ 8e 8c#/)	.	8A\	i	.	.	8a/	i	noi	.	.	.	.	.	.	.	.	.
16AAA'</JJ	.	.	.	.	.	.	.	.	.	.	.	.	.	.	.	.	.	.
*Xrep	*Xrep	*	*	*	*	*	*	*	*	*	*	*	*	*	*	*	*	*
=54	=54	=54	=54	=54	=54	=54	=54	=54	=54	=54	=54	=54	=54	=54	=54	=54	=54	=54
*rep	*	*	*	*	*	*	*	*	*	*	*	*	*	*	*	*	*	*
!	!LO:TX:a:t=P:problem=diminuendolike accent	!	!LO:TX:t=P:problem=mixed beam	!	!	!	!	!	!	!	!	!	!	!	!	!	!	!
(<16AA/LL	(<8ccnL 8g 8e-X^</	.	8Cn^</L	my...	.	.	(>8ccn^>\L	my...	pur...	.	4r	.	.	.	4r	.	.	.
16GG#X/)	.	.	.	.	.	.	.	.	.	.	.	.	.	.	.	.	.	.
16AA'</	8aJ 8f# 8d/)	.	8A\J	.	.	.	8a\J)	.	.	.	.	.	.	.	.	.	.	.
16AAA'</JJ	.	.	.	.	.	.	.	.	.	.	.	.	.	.	.	.	.	.
*	*rep	*	*	*	*	*	*	*	*	*	*	*	*	*	*	*	*	*
!	!LO:TX:b:t=molto cres.-cen-do.:dur=11q:ext=ud:problem=text with extention lines	!	!	!	!	!	!	!	!	!	!	!	!	!	!	!	!	!
(<16AA/LL	(<8ccL 8g 8e-^</	.	4r	.	.	.	4r	.	.	.	8r	.	.	.	8r	.	.	.
16GG#/)	.	.	.	.	.	.	.	.	.	.	.	.	.	.	.	.	.	.
16AA'</	8aJ 8f# 8d/)	.	.	.	.	.	.	.	.	.	8a/	nie	.	.	8a/	nie	sa-	.
16AAA'</JJ	.	.	.	.	.	.	.	.	.	.	.	.	.	.	.	.	.	.
*Xrep	*Xrep	*	*	*	*	*	*	*	*	*	*	*	*	*	*	*	*	*
=55	=55	=55	=55	=55	=55	=55	=55	=55	=55	=55	=55	=55	=55	=55	=55	=55	=55	=55
*rep	*rep	*	*	*	*	*	*	*	*	*	*	*	*	*	*	*	*	*
(<16AA/LL	(<8ccnL 8g 8e-X^</	.	4r	.	.	.	4r	.	.	.	8cn^>/	znaj-	.	.	8ccn^>\	znaj-	-re-	.
16GG#X/)	.	.	.	.	.	.	.	.	.	.	.	.	.	.	.	.	.	.
16AA'</	8aJ 8f# 8d/)	.	.	.	.	.	.	.	.	.	8a/	-my	.	.	8a/	-my	-mo	.
16AAA'</JJ	.	.	.	.	.	.	.	.	.	.	.	.	.	.	.	.	.	.
*	*Xrep	*	*	*	*	*	*	*	*	*	*	*	*	*	*	*	*	*
*	*rep	*	*	*	*	*	*	*	*	*	*	*	*	*	*	*	*	*
(<16AA/LL	(<8ccL 8g 8e-^</	.	8r	.	.	.	8r	.	.	.	4r	.	.	.	4r	.	.	.
16GG#/)	.	.	.	.	.	.	.	.	.	.	.	.	.	.	.	.	.	.
16AA'</	8aJ 8f# 8d/)	.	8A\	nie	sa-	.	8a/	nie	.	.	.	.	.	.	.	.	.	.
16AAA'</JJ	.	.	.	.	.	.	.	.	.	.	.	.	.	.	.	.	.	.
*Xrep	*Xrep	*	*	*	*	*	*	*	*	*	*	*	*	*	*	*	*	*
=56	=56	=56	=56	=56	=56	=56	=56	=56	=56	=56	=56	=56	=56	=56	=56	=56	=56	=56
*rep	*	*	*	*	*	*	*	*	*	*	*	*	*	*	*	*	*	*
(<16AA/LL	8cc#XL 8g 8e/	.	8C#X/	znaj-	-re-	.	8cc#X^>\	znaj-	.	.	4r	.	.	.	4r	.	.	.
16GG#X/)	.	.	.	.	.	.	.	.	.	.	.	.	.	.	.	.	.	.
16AA'</	8dd 8f#/	.	8E/	-my	-mo	.	8a\	-my	.	.	.	.	.	.	.	.	.	.
16AAA'</JJ	.	.	.	.	.	.	.	.	.	.	.	.	.	.	.	.	.	.
(<16AA/LL	8cc# 8b-X 8g/	.	4r	.	.	.	4r	.	.	.	8r	.	.	.	8r	.	.	.
16GG#/)	.	.	.	.	.	.	.	.	.	.	.	.	.	.	.	.	.	.
16AA'</	8ddJ 8a 8f#/	.	.	.	.	.	.	.	.	.	8a/	nie	.	.	8a/	nie	sa-	.
16AAA'</JJ	.	.	.	.	.	.	.	.	.	.	.	.	.	.	.	.	.	.
*Xrep	*	*	*	*	*	*	*	*	*	*	*	*	*	*	*	*	*	*
!!LO:LB:g=original
=57	=57	=57	=57	=57	=57	=57	=57	=57	=57	=57	=57	=57	=57	=57	=57	=57	=57	=57
!	!	!	!	!	!	!	!	!	!	!	!	!	!	!	!LO:S:color=grey	!	!	!
(<16AA/LL	8dd#XL 8ccn 8a\	.	4r	.	.	.	4r	.	.	.	8d#X^>/	znaj-	.	.	(>8dd#X^>\	znaj-	-re-	.
16GG#X/)	.	.	.	.	.	.	.	.	.	.	.	.	.	.	.	.	.	.
16AA'</	8ee 8cc#X 8a\	.	.	.	.	.	.	.	.	.	8a/	-my	.	.	8a/)	-my	-mo	.
16AAA'</JJ	.	.	.	.	.	.	.	.	.	.	.	.	.	.	.	.	.	.
*rep	*	*	*	*	*	*	*	*	*	*	*	*	*	*	*	*	*	*
(<16AA/LL	8dd# 8ccn 8a\	.	8r	.	.	.	8r	.	.	.	4r	.	.	.	4r	.	.	.
16GG#/)	.	.	.	.	.	.	.	.	.	.	.	.	.	.	.	.	.	.
*	*	*	*	*	*	*	*	*	*above	*	*	*	*	*	*	*	*	*
16AA'</	8eeJ 8cc#X 8a\	.	8A\	li-	.	.	8a/	li-	spie-	.	.	.	.	.	.	.	.	.
16AAA'</JJ	.	.	.	.	.	.	.	.	.	.	.	.	.	.	.	.	.	.
*Xrep	*	*	*	*	*	*	*	*	*	*	*	*	*	*	*	*	*	*
=58	=58	=58	=58	=58	=58	=58	=58	=58	=58	=58	=58	=58	=58	=58	=58	=58	=58	=58
*rep	*	*	*	*	*	*	*	*	*	*	*	*	*	*	*	*	*	*
!	!LO:S:s=2:note:problem=note-level slur	!	!	!	!	!	!	!	!	!	!	!	!	!	!	!	!	!
!	!LO:S:s=3:note:problem=note-level slur	!	!	!	!	!	!	!	!	!	!	!	!	!	!	!	!	!
(<16AA/LL	8eeL (>8b (<8g#X^>\	.	8E\	-toś-	.	.	8ee\	-toś-	-ta-	.	4r	.	.	.	4r	.	.	.
16GG#X/)	.	.	.	.	.	.	.	.	.	.	.	.	.	.	.	.	.	.
!	!LO:S:s=2:note:problem=note-level slur	!	!	!	!	!	!	!	!	!	!	!	!	!	!	!	!	!
!	!LO:S:s=3:note:problem=note-level slur	!	!	!	!	!	!	!	!	!	!	!	!	!	!	!	!	!
16AA'</	8ee 8cc#) 8a\)	.	8A\	-ći:	.	.	8a/	-ći:,	-ti!	.	.	.	.	.	.	.	.	.
*	*	*	*	*	*	*	*	*	*below	*	*	*	*	*	*	*	*	*
16AAA'</JJ	.	.	.	.	.	.	.	.	.	.	.	.	.	.	.	.	.	.
(<16AA/LL	(>8ee 8dd-X 8b-X^>\	.	4r	.	.	.	4r	.	.	.	8r	.	.	.	8r	.	.	.
16GG#/)	.	.	.	.	.	.	.	.	.	.	.	.	.	.	.	.	.	.
16AA'</	8ffnJ 8ccn 8a\)	.	.	.	.	.	.	.	.	.	8a/	li-	spie-	.	8a/	li-	.	.
16AAA'</JJ	.	.	.	.	.	.	.	.	.	.	.	.	.	.	.	.	.	.
*Xrep	*	*	*	*	*	*	*	*	*	*	*	*	*	*	*	*	*	*
=59	=59	=59	=59	=59	=59	=59	=59	=59	=59	=59	=59	=59	=59	=59	=59	=59	=59	=59
*rep	*	*	*	*	*	*	*	*	*	*	*	*	*	*	*	*	*	*
(<16AA/LL	(>8ffnL 8ee-X (<8ccn^>\	.	4r	.	.	.	4r	.	.	.	8fn/	-toś-	-ta-	.	8ffn^>\	-toś-	.	.
16GG#X/)	.	.	.	.	.	.	.	.	.	.	.	.	.	.	.	.	.	.
16AA'</	8ff#XJ 8ee- 8b\))	.	.	.	.	.	.	.	.	.	8a/	-ci	-ti	.	8a/	-ci:	.	.
16AAA'</JJ	.	.	.	.	.	.	.	.	.	.	.	.	.	.	.	.	.	.
(<16AA/LL	(>8ggL 8dd (<8b^>\	.	8r	.	.	.	8r	.	.	.	8r	.	.	.	8r	.	.	.
16GG#/)	.	.	.	.	.	.	.	.	.	.	.	.	.	.	.	.	.	.
16AA'</	8gg#XJ 8dd 8b-X\))	.	8Fn\	a	.	.	8ffn@\	a	.	.	8fn/	a	ne	.	8ffn\	a	.	.
16AAA'</JJ	.	.	.	.	.	.	.	.	.	.	.	.	.	.	.	.	.	.
*Xrep	*	*	*	*	*	*	*	*	*	*	*	*	*	*	*	*	*	*
=60	=60	=60	=60	=60	=60	=60	=60	=60	=60	=60	=60	=60	=60	=60	=60	=60	=60	=60
*	*	*	*	*ij	*	*	*	*ij	*	*	*	*ij	*	*	*	*	*	*
!	!	!LO:DY:b:t=ff.:rj	!	!	!	!	!	!	!	!	!	!	!	!	!LO:TX:B:a:t=E:color=red	!	!	!
8A'>\	8aaL 8cc# 8a'>\	ff	2Fn^>\	kie-	.	.	2ffn^>\	kie-	.	.	2fn^>/	kie-	sa-	.	2ffn^>\	kie-	.	.
16c#'>\LL	16aaL 16cc# 16a'>\	.	.	.	.	.	.	.	.	.	.	.	.	.	.	.	.	.
16c#'>\JJ	16aaJJ 16cc# 16a'>\	.	.	.	.	.	.	.	.	.	.	.	.	.	.	.	.	.
8c#'>\L	8aaL 8cc# 8a'>\	.	.	.	.	.	.	.	.	.	.	.	.	.	.	.	.	.
16c#'>\L	16aaL 16cc# 16a'>\	.	.	.	.	.	.	.	.	.	.	.	.	.	.	.	.	.
16c#'>\JJ	16aaJJ 16cc# 16a'>\	.	.	.	.	.	.	.	.	.	.	.	.	.	.	.	.	.
=61	=61	=61	=61	=61	=61	=61	=61	=61	=61	=61	=61	=61	=61	=61	=61	=61	=61	=61
8c#'>\L	8aaL 8cc# 8a'>\	.	4..Fn\	-dy	.	.	4..ffn\	-dy	.	.	4..fn/	-dy	-zii	.	4..ffn\	-dy	.	.
16c#'>\L	16aaL 16cc# 16a'>\	.	.	.	.	.	.	.	.	.	.	.	.	.	.	.	.	.
16c#'>\JJ	16aaJJ 16cc# 16a'>\	.	.	.	.	.	.	.	.	.	.	.	.	.	.	.	.	.
8c#'>\L	8aaL 8cc# 8a'>\	.	.	.	.	.	.	.	.	.	.	.	.	.	.	.	.	.
16c#'>\L	16aaL 16cc# 16a'>\	.	.	.	.	.	.	.	.	.	.	.	.	.	.	.	.	.
16c#'>\JJ	16aaJJ 16cc# 16a'>\	.	16F\	już	.	.	16ff\	już	.	.	16f/	już	de'	.	16ff\	już	.	.
=62	=62	=62	=62	=62	=62	=62	=62	=62	=62	=62	=62	=62	=62	=62	=62	=62	=62	=62
8c#'>\	8aa 8cc# 8a'>\	.	2Fn^>\	ja-	.	.	2ffn^>\	ja-	.	.	2fn^>/	ja-	ci	.	2ffn^>\	ja-	.	.
!	!	!LO:HP:b	!	!	!	!	!	!	!	!	!	!	!	!	!	!	!	!
16A\LL	16a/LL	>	.	.	.	.	.	.	.	.	.	.	.	.	.	.	.	.
16A\JJ	16a/JJ	.	.	.	.	.	.	.	.	.	.	.	.	.	.	.	.	.
8A\	8a/	.	.	.	.	.	.	.	.	.	.	.	.	.	.	.	.	.
16A\L	16a/L	.	.	.	.	.	.	.	.	.	.	.	.	.	.	.	.	.
!LO:TX:B:b:t=V&colon; S&colon;	!	!	!	!	!	!	!	!	!	!	!	!	!	!	!	!	!	!
16A\J	16a/J	]]	.	.	.	.	.	.	.	.	.	.	.	.	.	.	.	.
!!LO:PB:g=original
=63	=63	=63	=63	=63	=63	=63	=63	=63	=63	=63	=63	=63	=63	=63	=63	=63	=63	=63
8A'>\	8a/	.	4..Fn\	-dła	.	.	4..fn/	-dła	.	.	4..fn/	-dła	.	.	4..fn/	-dła	-bi in-	.
16A'>\LL	16a'</LL	.	.	.	.	.	.	.	.	.	.	.	.	.	.	.	.	.
16A'>\JJ	16a'</JJ	.	.	.	.	.	.	.	.	.	.	.	.	.	.	.	.	.
8A'>\	8a'</	.	.	.	.	.	.	.	.	.	.	.	.	.	.	.	.	.
*	*8va	*	*	*	*	*	*	*	*	*	*	*	*	*	*	*	*	*
!	!	!LO:DY:b:t=p.:rj	!	!	!	!	!	!	!	!	!	!	!	!	!	!	!	!
16CnLL 16FFn'</	16aaaLL 16fffn'>\	p	.	.	.	.	.	.	.	.	.	.	.	.	.	.	.	.
16CJJ 16FF'</	16aaaJJ 16fff'>\	.	16F\	nie	.	.	16f/	nie	.	.	16f/	nie	.	.	16f/	nie	-vo-	.
=64	=64	=64	=64	=64	=64	=64	=64	=64	=64	=64	=64	=64	=64	=64	=64	=64	=64	=64
*k[b-]	*k[b-]	*	*k[b-]	*	*	*	*k[b-]	*	*	*	*k[b-]	*	*	*	*k[b-]	*	*	*
!	!	!	!	!	!	!	!	!	!	!	!LO:TX:a:t=P:problem=znaki przykluczowe&colon; fn, ccn, b-	!	!	!	!LO:TX:a:t=P:problem=znaki przykluczowe&colon; fn, ccn, b-	!	!	!
!	!	!	!	!	!	!LO:DY:a:t=p.:rj	!LO:TX:a:t=P:problem=znaki przykluczowe&colon; fn, ccn, b-	!	!	!LO:DY:b:t=p.:rj	!	!	!	!LO:DY:a:t=p.:rj	!	!	!	!LO:DY:a:t=p.:rj
8C 8FF'</	(>16aaaLL 16fff\	.	4F\	sta-	.	p	4a/	sta-	.	p	4c/	sta-	.	p	4f/	sta-	-la-	p
.	16fff 16ccc\)	.	.	.	.	.	.	.	.	.	.	.	.	.	.	.	.	.
16fLL 16c 16A'>\	16fff 16ccc'>\	.	.	.	.	.	.	.	.	.	.	.	.	.	.	.	.	.
16fJJ 16c 16A'>\	16fffJJ 16ccc'>\	.	.	.	.	.	.	.	.	.	.	.	.	.	.	.	.	.
8f 8c 8A'>\	(>16fffLL 16ccc\	.	8F\	-nie,	.	.	8a/	-nie,	.	.	8cn/	-nie,	.	.	8f/	-nie,	-ti,	.
.	16ccc 16aa\)	.	.	.	.	.	.	.	.	.	.	.	.	.	.	.	.	.
16FLL 16FF'</	16ccc 16aa'>\	.	8F\	szar-	.	.	8a/	szar-	.	.	8c/	szar-	.	.	8f/	szar-	le	.
16FJJ 16FF'</	16eeeJJ 16ccc'>\	.	.	.	.	.	.	.	.	.	.	.	.	.	.	.	.	.
=65	=65	=65	=65	=65	=65	=65	=65	=65	=65	=65	=65	=65	=65	=65	=65	=65	=65	=65
8BB- 8BBB-'</	(>16eeeLL 16ccc\	.	4.BB-/	-paj-	.	.	4.b-\	-paj-	.	.	4.B-/	-paj-	.	.	4.f/	-paj-	car-	.
.	16ddd 16bb-\)	.	.	.	.	.	.	.	.	.	.	.	.	.	.	.	.	.
.	8qeee 8qccc/	.	.	.	.	.	.	.	.	.	.	.	.	.	.	.	.	.
16fLL 16B- 16F\	16ddd 16bb-'>\	.	.	.	.	.	.	.	.	.	.	.	.	.	.	.	.	.
16fJJ 16B- 16F\	16ccc#XJJ 16aa'>\	.	.	.	.	.	.	.	.	.	.	.	.	.	.	.	.	.
8f 8B- 8F\	8ddd|> 8bb-\	.	.	.	.	.	.	.	.	.	.	.	.	.	.	.	.	.
16ELL 16EE'</	16gggL 16bb-'>\	.	8D\	-my	.	.	8g/	-my	.	.	8B-/	-my	.	.	8e/	-my	-ni	.
16EJJ 16EE'</	16gggJ 16bb-'>\	.	.	.	.	.	.	.	.	.	.	.	.	.	.	.	.	.
=66	=66	=66	=66	=66	=66	=66	=66	=66	=66	=66	=66	=66	=66	=66	=66	=66	=66	=66
8E 8EE'</	(>16gggLL 16bb-\	.	4GG/	cia-	.	.	4d/	cia-	.	.	4B-/	cia-	.	.	4e/	cia-	Sue	.
.	16ddd 16bb-\)	.	.	.	.	.	.	.	.	.	.	.	.	.	.	.	.	.
16eLL 16B- 16G\	16ddd 16bb-'>\	.	.	.	.	.	.	.	.	.	.	.	.	.	.	.	.	.
16eJJ 16B- 16G\	16bb-JJ 16gg'>\	.	.	.	.	.	.	.	.	.	.	.	.	.	.	.	.	.
8e 8B- 8G\	(<16bb-LL 16gg/	.	8GG/	-ło	.	.	8d/	-ło	.	.	8B-/	-ło	.	.	8e/	-ło	la-	.
.	16gg 16ee/)	.	.	.	.	.	.	.	.	.	.	.	.	.	.	.	.	.
16E'>\LL	16gg 16ee'</	.	8GG/	na	.	.	8d/	na	.	.	8B-/	na	.	.	8e/	na	-ce-	.
*	*	*	*	*	*	*	*	*Xij	*	*	*	*Xij	*	*	*	*	*	*
16E'>\JJ	16bb-JJ 16gg 16dd'</	.	.	.	.	.	.	.	.	.	.	.	.	.	.	.	.	.
=67	=67	=67	=67	=67	=67	=67	=67	=67	=67	=67	=67	=67	=67	=67	=67	=67	=67	=67
*	*^	*	*	*	*	*	*	*	*	*	*	*	*	*	*	*	*	*
8AA'</	16bb-/LL	4gg 4cc#X\	.	4AA/	sztu-	.	.	8c#X/L	sztu-	.	.	8B-/	sztu-	.	.	4e/	sztu-	-ria-	.
.	16aa/JJ	.	.	.	.	.	.	.	.	.	.	.	.	.	.	.	.	.	.
.	8qbb-/	.	.	.	.	.	.	.	.	.	.	.	.	.	.	.	.	.	.
16eLL 16c#X'>\	16aa/LL	.	.	.	.	.	.	8e/J	.	.	.	8A/	-ki,	.	.	.	.	.	.
16eJJ 16c#'>\	16gg#X/JJ	.	.	.	.	.	.	.	.	.	.	.	.	.	.	.	.	.	.
8e 8c#'>\	8aa/	8reyy	.	8AA/	-ki,	.	.	8a/	-ki,	.	.	4r	.	.	.	8a/	-ki,	-mo,	.
!	!	!	!LO:DY:b:t=pp.:rj	!	!	!	!LO:DY:a:t=pp.:color=black	!	!	!	!LO:DY:a:t=pp.:rj	!	!	!	!	!	!	!	!LO:DY:a:t=pp.:rj
16AALL 16DD'</	16aa'>\LL	16reyy	pp	16D\	nie-	.	pp	16a/	nie-	l'os-	pp	.	.	.	.	16a/	nie-	l'os-	pp
16AAJJ 16DD'</	16aa'>\JJ	16reyy	.	16D\	-chaj	.	.	16a/	-chaj	-sa a	.	.	.	.	.	16a/	-chaj	-sa a	.
*	*v	*v	*	*	*	*	*	*	*	*	*	*	*	*	*	*	*	*	*
!!LO:LB:g=original
=68	=68	=68	=68	=68	=68	=68	=68	=68	=68	=68	=68	=68	=68	=68	=68	=68	=68	=68
*	*	*	*	*	*	*	*	*	*	*	*	*	*	*	*	*	*above	*
!	!	!LO:DY:b:t=pp.:rj	!	!	!	!	!	!	!	!	!	!	!	!	!LO:TX:B:a:t=F:color=red	!	!	!
8AA 8DD'</	(>16aa\LL	pp	4D^>\	na-	.	.	4a^</	na-	nu-	.	8r	.	.	.	4a^</	na-	nu-	.
.	16ddd\)	.	.	.	.	.	.	.	.	.	.	.	.	.	.	.	.	.
!	!	!	!	!	!	!	!	!	!	!	!	!	!	!LO:DY:a:t=forte.:color=black	!	!	!	!
16dLL 16A 16F'>\	16ddd'>\	.	.	.	.	.	.	.	.	.	16f/	nie-	L'os-	f	.	.	.	.
16dJJ 16A 16F'>\	16eee'>\JJ	.	.	.	.	.	.	.	.	.	16f/	-chaj	-sa a	.	.	.	.	.
8d 8A 8F'>\	(>16eee\LL	.	8D\	-gie	.	.	8a/	-gie	-do	.	16f/	na-	nu-	.	8a/	-gie	-do	.
.	16fff\)	.	.	.	.	.	.	.	.	.	16f/	-gie	-do	.	.	.	.	.
16AALL 16DD'</	16fff'>\	.	16D\	swie-	.	.	16a/	swie-	gli	.	16f/	swie-	gli	.	16a/	swie-	gli	.
16AAJJ 16DD'</	16aaa'>\JJ	.	16D\	-cą	.	.	16a/	-cą	sco-	.	16f/	-cą	sco-	.	16a/	-cą	sco-	.
=69	=69	=69	=69	=69	=69	=69	=69	=69	=69	=69	=69	=69	=69	=69	=69	=69	=69	=69
*	*^	*	*	*	*	*	*	*	*	*	*	*	*	*	*	*	*	*
!	!	!	!	!	!	!	!	!	!	!	!	!	!	!	!LO:HP:a	!	!	!	!
8AA 8DD'</	(>16aaa\LL	16ryy	.	4D^>\	koś-	.	.	4a^</	koś-	-pria-	.	(<16g/LL	koś-	-pria-	>	4a^/	koś-	-pria-	.
.	16eee\JJ)	16ryy	.	.	.	.	.	.	.	.	.	16f/JJ)	.	.	]	.	.	.	.
16c#XLL 16A 16G'>\	16eee'>\LL	16ryy	.	.	.	.	.	.	.	.	.	16e/	-ci	-mo	.	.	.	.	.
16c#JJ 16A 16G'>\	16aa'>\JJ	16ryy	.	.	.	.	.	.	.	.	.	16e/	niech	sco-	.	.	.	.	.
!	!	!	!	!	!	!	!	!	!	!	!	!	!	!	!LO:HP:a	!	!	!	!
8c# 8A 8G'>\	8aa^^>/L	(>16aa\L	.	8D\	-ci,	.	.	8a/	-ci,	-mo,	.	(<16g/LL	swie-	-pria-	>	8a/	-ći,	-mo,	.
.	.	16eeJ\)	.	.	.	.	.	.	.	.	.	16f/JJ)	.	.	]	.	.	.	.
16AALL 16DD'</	16aa/L	16eeL\	.	16D\	nie-	.	.	16a/	nie-	l'os-	.	16e/	-cą	-mo,	.	16a/	nie-	l'os-	.
16AAJJ 16DD'</	16aa/JJ	16gg\J	.	16D\	-chaj	.	.	16a/	-chaj	-sa	.	16e/	mu	le	.	16a/	-chaj	-sa	.
*	*v	*v	*	*	*	*	*	*	*	*	*	*	*	*	*	*	*	*	*
=70	=70	=70	=70	=70	=70	=70	=70	=70	=70	=70	=70	=70	=70	=70	=70	=70	=70	=70
8AA 8DD'</	(>16aa\LL	.	4D^>\	na-	.	.	4a^</	na-	nu-	.	16f/	koś-	car-	.	4a^</	na-	nu-	.
.	16ddd\)	.	.	.	.	.	.	.	.	.	16f/	-ci,	-ni	.	.	.	.	.
16dLL 16A 16F'>\	16ddd'>\	.	.	.	.	.	.	.	.	.	16f/	nie-	la-	.	.	.	.	.
16dJJ 16A 16F'>\	16eee'>\JJ	.	.	.	.	.	.	.	.	.	16f/	-chaj	-ce-	.	.	.	.	.
8d 8A 8F'>\	(>16eee\LL	.	8D\	-gie	.	.	8a/	-gie	-do	.	16f/	na-	-ria-	.	8a/	-gie	-do	.
.	16fff\)	.	.	.	.	.	.	.	.	.	16f/	-gie	-mo	.	.	.	.	.
16AALL 16DD'/<	16fff'>\	.	16D\	swie-	.	.	16a/	swie-	gli	.	16f/	swie-	le	.	16a/	swie-	gli	.
16AAJJ 16DD'</	16aaa'>\JJ	.	16D\	-cą	.	.	16a/	-cą	sco-	.	16f/	-cą	sue	.	16a/	-cą	sco-	.
!!LO:PB:g=original
=71	=71	=71	=71	=71	=71	=71	=71	=71	=71	=71	=71	=71	=71	=71	=71	=71	=71	=71
*	*	*	*	*Xij	*	*	*	*	*	*	*	*	*	*	*	*	*	*
!	!	!	!	!	!	!	!	!	!	!	!	!	!	!LO:HP:a	!	!	!	!
8AA 8DD'</	(>16aaa\LL	.	4AA^</	koś-	.	.	4a^</	koś-	-pria-	.	(<16g/LL	koś-	car-	>	4a^</	koś-	-pria-	.
.	16eee\)	.	.	.	.	.	.	.	.	.	16f/JJ)	.	.	]	.	.	.	.
16c#XLL 16A'>\	16eee'>\	.	.	.	.	.	.	.	.	.	16e/	-ci,	-ni,	.	.	.	.	.
16c#JJ 16A'>\	16aa'>\JJ	.	.	.	.	.	.	.	.	.	16e/	niech	sco-	.	.	.	.	.
8c# 8A'>\	8aa/	.	8A\	-ci,	.	.	8a/	-ći,	-mo.	.	8a/	swie-	-pria-	.	16a/	-ci.	-mo.	.
.	.	.	.	.	.	.	.	.	.	.	.	.	.	.	16r	.	.	.
!	!	!LO:DY:b:t=ff.:rj	!	!	!	!LO:DY:a:t=ff.:rj	!	!	!	!LO:DY:a:t=ff.:rj	!	!	!	!LO:DY:a:t=ff.:rj	!	!	!	!LO:DY:a:t=ff.:rj
16d\LL	16fffLL 16ddd 16ff'>\	ff	16d\	kie-	.	ff	16dd\	kie-	Noi	ff	16a/	-cą	-mo	ff	8ff\	a	Le	ff
16d\JJ	16fffJJ 16ddd 16ff'>\	.	16d\	-dy	.	.	16dd\	-dy	sa-	.	16a/	mu	gli	.	.	.	.	.
=72	=72	=72	=72	=72	=72	=72	=72	=72	=72	=72	=72	=72	=72	=72	=72	=72	=72	=72
*	*	*	*	*ij	*	*	*	*	*	*	*	*	*	*	*	*	*	*
(>16d\LL	8fffL 8ddd 8ff'>^^>\	.	(>16d\LL	ja-	.	.	(>16dd\LL	ja-	-re-	.	[>2dd\	koś-	l'os-	.	(>4.ff\	ja-	car-	.
16c\)	.	.	16c\JJ)	.	.	.	16cc\JJ)	.	.	.	.	.	.	.	.	.	.	.
16c'>\	16fffL 16ddd 16ff'>\	.	(>16c\LL	-dła	.	.	(>16cc\LL	-dła	-mo	.	.	.	.	.	.	.	.	.
16B-'>\JJ	16fffJJ 16ddd 16ff'>\	.	16B-X\JJ)	.	.	.	16b-X\JJ)	.	.	.	.	.	.	.	.	.	.	.
(>16B-\LL	8fffL 8ddd 8ff^^>\	.	(>16B-\LL	już	.	.	(>16b-\LL	już	pur	.	.	.	.	.	.	.	.	.
16A\)	.	.	16A\JJ)	.	.	.	16a\JJ)	.	.	.	.	.	.	.	.	.	.	.
16A'>\	16eeeL 16ddd 16ee'>\	.	(>16A\LL	nie	.	.	(<16a/LL	nie	spie-	.	.	.	.	.	8ee\)	.	.	.
16G#X'>\JJ	16eeeJJ 16ddd 16ee'>\	.	16G#X\JJ)	.	.	.	16g#X/JJ)	.	.	.	.	.	.	.	.	.	.	.
=73	=73	=73	=73	=73	=73	=73	=73	=73	=73	=73	=73	=73	=73	=73	=73	=73	=73	=73
!LO:TX:t=P:problem=mixed beam	!	!	!	!	!	!	!	!	!	!	!	!	!	!	!	!	!	!
(>16G#X\LL	8eeeL 8ddd 8ee^^>\	.	(>16G#X\LL	sta-	.	.	(<16g#X/LL	sta-	-ta-	.	16dd\]	.	.	.	8ee\	-dła,	-ni	.
16A\)	.	.	16A\JJ)	.	.	.	16a/JJ)	.	.	.	16dd\	-ci,	-sa	.	.	.	.	.
*	*	*	*	*	*	*	*	*	*	*	*	*	*	*	*	*	*below	*
16AA'</	16eeeL 16ccc#X 16ee'>\	.	8A\	-nie,	.	.	8a/	-nie,	-ti!	.	16cc#X\	kie-	la	.	16ee\	kie-	la	.
16AA'</JJ	16eeeJJ 16ccc# 16ee'>\	.	.	.	.	.	.	.	.	.	16cc#\	-dy	ce-	.	16ee\	-dy	ce-	.
8A'>\	8eee 8ccc# 8ee'>\	.	8r	.	.	.	8r	.	.	.	16cc#\	ja-	-ria-	.	16ee\	ja-	-ria-	.
.	.	.	.	.	.	.	.	.	.	.	16cc#\	-dła,	-mo	.	16ee\	-dła,	-mo	.
!	!	!	!	!	!	!	!	!	!	!	!	!	!	!	!LO:ACC:color=blue	!	!	!
16c'>\LL	16eee-XLL 16cccn 16ee-X'</	.	16cn\	kie-	.	.	16ccn\	kie-	le	.	16ccn\	kie-	le	.	16ee-X\	kie-	le	.
16c'>\JJ	16eee-JJ 16ccc 16ee-'</	.	16c\	-dy	.	.	16cc\	-dy	sue	.	16cc\	-dy	sue	.	16ee-\	-dy	sue	.
!!LO:LB:g=original
=74	=74	=74	=74	=74	=74	=74	=74	=74	=74	=74	=74	=74	=74	=74	=74	=74	=74	=74
(>16c\LL	8eee-XL 8ccc 8ee-X/	.	(>16c\LL	ja-	.	.	(>16cc\LL	ja-	car-	.	[>2cc\	ja-	car-	.	(>4.ee-X\	ja-	car-	.
16B-\)	.	.	16B-\JJ)	.	.	.	16b-\JJ)	.	.	.	.	.	.	.	.	.	.	.
16B-'>\	16eee-L 16ccc 16ee-/	.	(>16B-\LL	-dła	.	.	(>16b-\LL	-dła	-ni	.	.	.	.	.	.	.	.	.
16A-X'>\JJ	16eee-JJ 16ccc 16ee-/	.	16A-X\JJ)	.	.	.	16a-X\JJ)	.	.	.	.	.	.	.	.	.	.	.
(>16A-\LL	8eee-L 8ccc 8ee-/	.	(>16A-\LL	już	.	.	(<16a-/LL	już	la-	.	.	.	.	.	.	.	.	.
16G\)	.	.	16G\JJ)	.	.	.	16g/JJ)	.	.	.	.	.	.	.	.	.	.	.
16G'>\	16dddL 16ccc 16dd/	.	(>16G\LL	nie	.	.	(<16g/LL	nie	-ce-	.	.	.	.	.	8dd\)	.	.	.
16F#X'>\JJ	16dddJJ 16ccc 16dd/	.	16F#X\JJ)	.	.	.	16f#X/JJ)	.	.	.	.	.	.	.	.	.	.	.
=75	=75	=75	=75	=75	=75	=75	=75	=75	=75	=75	=75	=75	=75	=75	=75	=75	=75	=75
*	*^	*	*	*	*	*	*	*	*	*	*	*	*	*	*	*	*	*
(>16F#X\LL	8dddL 8ccc 8dd/	8ryy	.	(>16F#X\LL	sta-	.	.	(<16f#X/LL	sta-	-ria-	.	16cc\]	.	.	.	8dd\	-dła	-ni	.
*	*	*	*	*	*Xij	*	*	*	*	*	*	*	*	*	*	*	*	*	*
16G\)	.	.	.	16G\JJ)	.	.	.	16g/JJ)	.	.	.	16cc\	-dła	-ni	.	.	.	.	.
16G'>\	16dddL 16bb- 16dd/	16ryy	.	8G\	-nie,	.	.	8g/	-nie,	-mo,	.	16b-\	już	la-	.	16dd\	już	la-	.
16G'>\JJ	16dddJJ 16bb- 16dd/	16ryy	.	.	.	.	.	.	.	.	.	16b-\	nie	-ce-	.	16dd\	nie	-ce-	.
8G'>\	8ddd 8bb- 8dd/	8ryy	.	8r	.	.	.	8r	.	.	.	16b-\	sta-	-ria-	.	16dd\	sta-	-ria-	.
.	.	.	.	.	.	.	.	.	.	.	.	16b-\	-nie,	-mo,	.	16dd\	-nie,	-mo,	.
*	*	*	*	*	*	*	*	*	*	*	*	*	*	*	*	*	*	*	*
!	!	!	!LO:DY:b:t=f.:rj	!	!	!	!	!	!	!	!	!	!	!	!	!	!	!	!
8B- 8E 8BB-\	16ddd/LL	8gg 8dd\	f	8B-\	szar-	.	.	8dd\	szar-	spie-	.	8g/	szar-	spie-	.	8dd\	szar-	spie-	.
.	16ddd/JJ	.	.	.	.	.	.	.	.	.	.	.	.	.	.	.	.	.	.
=76	=76	=76	=76	=76	=76	=76	=76	=76	=76	=76	=76	=76	=76	=76	=76	=76	=76	=76	=76
*	*	*	*	*	*ij	*	*	*	*ij	*	*	*	*ij	*	*	*	*	*	*
8AL 8E 8AA'>\	(<16ddd/LL	8ggL 8ee\	.	8A\	-paj-	.	.	8ee\	-paj-	-ta-	.	8g/	-paj-	-ta-	.	8cc#X\	-paj-	-ta-	.
.	16ccc#X/)	.	.	.	.	.	.	.	.	.	.	.	.	.	.	.	.	.	.
8B- 8E 8BB-'>\	16ddd'</	8ggJ 8dd\	.	8B-\	-my	.	.	8dd\	-my	-ti	.	8g/	-my	-ti	.	8dd\	-my	-ti	.
.	16ddd'</JJ	.	.	.	.	.	.	.	.	.	.	.	.	.	.	.	.	.	.
8A 8E 8AA'>\	(<16ddd/LL	8ggL 8ee\	.	8A\	cia-	.	.	8ee\	cia-	noi	.	8g/	cia-	noi	.	8cc#\	cia-	noi	.
.	16ccc#/)	.	.	.	.	.	.	.	.	.	.	.	.	.	.	.	.	.	.
8B-J 8E 8BB-'>\	16ddd'</	8ggJ 8dd\	.	8B-\	-ło	.	.	8dd\	-ło	sa-	.	8g/	-ło	sa-	.	8dd\	-ło	sa-	.
.	16ddd'</JJ	.	.	.	.	.	.	.	.	.	.	.	.	.	.	.	.	.	.
=77	=77	=77	=77	=77	=77	=77	=77	=77	=77	=77	=77	=77	=77	=77	=77	=77	=77	=77	=77
8A 8E 8AA\	16ccc#X/LL	8gg 8ee\	.	4A\	w sztu-	.	.	4ee\	w sztu-	-re-	.	4g/	w sztu-	-re-	.	4cc#X\	w sztu-	-re-	.
.	16eee/	.	.	.	.	.	.	.	.	.	.	.	.	.	.	.	.	.	.
*	*v	*v	*	*	*	*	*	*	*	*	*	*	*	*	*	*	*	*	*
*	*X8va	*	*	*	*	*	*	*	*	*	*	*	*	*	*	*	*	*
*	*^	*	*	*	*	*	*	*	*	*	*	*	*	*	*	*	*	*
!	!	!	!LO:HP:b=2	!	!	!	!	!	!	!	!	!	!	!	!	!	!	!	!
(>16A\LL	16aa/	8re	>	.	.	.	.	.	.	.	.	.	.	.	.	.	.	.	.
16c#X\JJ	16ccc#/JJ	.	.	.	.	.	.	.	.	.	.	.	.	.	.	.	.	.	.
8e\)	8eee\	8re	]	8A\	-ki,	.	.	8ee\	-ki,	-mo,	.	8g/	-ki,	-mo,	.	8ee\	-ki,	-mo,	.
!LO:TX:B:b:t=V&colon; S&colon;	!	!	!LO:DY:b=2:t=f.:rj	!	!	!	!	!	!	!	!	!	!	!	!	!	!	!	!
8e-X 8E-X'>\	16gg/LL	8cc#y 8g\	f	8cn\	szar-	.	.	8ee-X\	szar-	noi	.	8g/	szar-	noi	.	8gg\	szar-	noi	.
.	16gg/JJ	.	.	.	.	.	.	.	.	.	.	.	.	.	.	.	.	.	.
!!LO:PB:g=original
=78	=78	=78	=78	=78	=78	=78	=78	=78	=78	=78	=78	=78	=78	=78	=78	=78	=78	=78	=78
8dL 8A 8D'>\	(<16gg/LL	8ccL 8a\	.	8c\	-paj-	.	.	8dd\	-paj-	.	.	8a/	-paj-	pur	.	8ff#X\	paj-	.	.
.	16ff#X/)	.	.	.	.	.	.	.	.	.	.	.	.	.	.	.	.	.	.
8e-X 8A 8E-X'>\	16gg'</	8cc 8g\	.	8c\	-my	.	.	8ee-X\	-my	.	.	8g/	-my	sa-	.	8gg\	-my	.	.
.	16gg'</JJ	.	.	.	.	.	.	.	.	.	.	.	.	.	.	.	.	.	.
8d 8A 8D'>\	(<16gg/LL	8cc 8a\	.	8c\	cia-	.	.	8dd\	cia-	.	.	8a/	cia-	-rem	.	8ff#\	cia-	.	.
.	16ff#/)	.	.	.	.	.	.	.	.	.	.	.	.	.	.	.	.	.	.
8e-J 8A 8E-'>\	16gg'</	8ccJ 8g\	.	8c\	-ło	.	.	8ee-\	-ło	.	.	8g/	-ło	spie-	.	8gg\	-ło	.	.
.	16gg'</JJ	.	.	.	.	.	.	.	.	.	.	.	.	.	.	.	.	.	.
=79	=79	=79	=79	=79	=79	=79	=79	=79	=79	=79	=79	=79	=79	=79	=79	=79	=79	=79	=79
8d 8A 8D\	(<16gg/LL	8cc 8a\	.	4D\	w sztu-	.	.	4dd\	w sztu-	.	.	4a/	w sztu-	-ta-	.	4ff#X\	w sztu-	.	.
.	16ff#X/)	.	.	.	.	.	.	.	.	.	.	.	.	.	.	.	.	.	.
!	!	!	!LO:HP:b	!	!	!	!	!	!	!	!	!	!	!	!	!	!	!	!
(>16f#X>\LL	(<16ff#/	16ryy	>	.	.	.	.	.	.	.	.	.	.	.	.	.	.	.	.
16a>\JJ	16aa/JJ	16ryy	.	.	.	.	.	.	.	.	.	.	.	.	.	.	.	.	.
8dd>\)	8ddd/)	8ryy	]	8D\	-ki,	.	.	8dd\	-ki,	.	.	8d/	-ki,	-ti,	.	8dd\	-ki,	.	.
8f#X 8F#X\	8ccc 8aa 8dd^>^\	8ryy	.	8D\	niech	.	.	8dd\	niech	.	.	8d/	niech	e	.	8dd\	niech	.	.
*	*v	*v	*	*	*	*	*	*	*	*	*	*	*	*	*	*	*	*	*
=80	=80	=80	=80	=80	=80	=80	=80	=80	=80	=80	=80	=80	=80	=80	=80	=80	=80	=80
!	!	!	!	!	!	!	!LO:TX:t=P:problem=mixed beam	!	!	!	!	!	!	!	!LO:TX:B:a:t=G:color=red	!	!	!
8gL 8G\	8bb-L 8gg 8dd^^>\	.	(>8G\L	na-	.	.	8g/L	na-	.	.	(<8g/L	na-	l'os-	.	(>8gg\L	na-	.	.
8d 8D\	8aa 8ff 8dd^^>\	.	8F\J)	.	.	.	8ff\J	.	.	.	8f/J)	.	.	.	8ff\J)	.	.	.
8e-X 8E-X\	8gg 8ee-X 8b-^^>\	.	8E-X\	-gie,	.	.	8ee-X\	-gie,	.	.	8e-X/	-gie,	-sa	.	8ee-X\	-gie,	.	.
8B-J 8BB-\	8ffJ 8dd 8b-^^>\	.	8D\	niech	.	.	8dd\	niech	.	.	8d/	niech	a	.	8dd\	niech	.	.
!!LO:LB:g=original
=81	=81	=81	=81	=81	=81	=81	=81	=81	=81	=81	=81	=81	=81	=81	=81	=81	=81	=81
!	!	!	!	!	!	!	!	!	!	!	!LO:TX:t=P:problem=mixed beam	!	!	!	!	!	!	!
8cL 8C\	8ee-XL 8cc 8g^^>/	.	(>8c\L	na-	.	.	(>8cc\L	na-	.	.	(>8c/L	na-	nu-	.	(>8cc\L	na-	.	.
8GJ 8GG\	8ddJ 8b- 8g^^>/	.	8B-\J)	.	.	.	8b-\J)	.	.	.	8b-\J)	.	.	.	8b-\J)	.	.	.
!	!	!	!LO:ACC:color=grey	!	!	!	!LO:ACC:color=grey	!	!	!	!LO:ACC:color=grey	!	!	!	!LO:ACC:color=grey	!	!	!
8A-XL 8AA-X\	8ccL 8a-X^^>/	.	8A-\	-gie	.	.	8a-\	-gie	.	.	8a-\	-gie	-do	.	8a-/	-gie	.	.
8E-XJ 8EE-X\	8b-J 8g^^>/	.	8G\	mu	.	.	8g\	mu	.	.	8g\	mu	sco-	.	8g/	mu	.	.
=82	=82	=82	=82	=82	=82	=82	=82	=82	=82	=82	=82	=82	=82	=82	=82	=82	=82	=82
!	!	!LO:DY:b:t=fp.:rj	!	!	!	!	!	!	!	!	!	!	!	!	!	!	!	!
2En 2EEn\	2a 2g 2c#X^>/	fp	8G^>\	swie-	.	.	8g^</	swie-	.	.	8g^</	swie-	-pria-	.	8g^</	swie-	.	.
.	.	.	16G\	-cą	.	.	16g/	-cą	.	.	16g/	-cą	-mo	.	16g/	-cą	.	.
.	.	.	16G\	niech	.	.	16g/	niech	.	.	16g/	niech	le	.	16g/	niech	.	.
.	.	.	16G\	na-	.	.	16g/	na-	.	.	16g/	na-	car-	.	16g/	na-	.	.
.	.	.	16G\	-gie	.	.	16g/	-gie	.	.	16g/	-gie	-ni	.	16g/	-gie	.	.
.	.	.	16G\	swie-	.	.	16g/	swie-	.	.	16g/	swie-	la-	.	16g/	swie-	.	.
.	.	.	16G\	-cą	.	.	16g/	-cą	.	.	16g/	-cą	-ce-	.	16g/	-cą	.	.
=83	=83	=83	=83	=83	=83	=83	=83	=83	=83	=83	=83	=83	=83	=83	=83	=83	=83	=83
!	!	!LO:DY:b:t=fp.:rj	!	!	!	!	!	!	!	!	!	!	!	!	!	!	!	!
2E-X 2EE-X\	2g 2c 2G^>/	fp	8G^>\	koś-	.	.	8g^</	koś-	.	.	8g^</	koś-	-ria-	.	8g^</	koś-	.	.
.	.	.	16G\	-ci,	.	.	16g/	-ci,	.	.	16g/	-ci,	-mo,	.	16g/	-ci,	.	.
.	.	.	16G\	szar-	.	.	16g/	szar-	.	.	16g/	szar-	le	.	16g/	szar-	.	.
.	.	.	16G\	-paj-	.	.	16g/	-paj-	.	.	16g/	-paj-	car-	.	16g/	-paj-	.	.
.	.	.	16G\	-my	.	.	16g/	-my	.	.	16g/	-my	-ni	.	16g/	-my	.	.
.	.	.	16G\	bez	.	.	16g/	bez	.	.	16g/	bez	la-	.	16g/	bez	.	.
.	.	.	16G\	li-	.	.	16g/	li-	.	.	16g/	li-	-ce-	.	16g/	li-	.	.
!!LO:PB:g=original
=84	=84	=84	=84	=84	=84	=84	=84	=84	=84	=84	=84	=84	=84	=84	=84	=84	=84	=84
2D 2DD^<\	2g 2d 2B- 2G^</	.	8G^>\	-toś-	.	.	8g^</	-toś-	.	.	8g^</	-toś-	-ria-	.	8g^</	-toś-	.	.
.	.	.	16G\	-ci,	.	.	16g/	-ci,	.	.	16g/	-ci,	-mo	.	16g/	-ci,	.	.
.	.	.	16G\	gdy	.	.	16g/	gdy	.	.	16g/	gdy	noi	.	16g/	gdy	.	.
.	.	.	16G\	jad-	.	.	16g/	jad-	.	.	16g/	jad-	per	.	16g/	jad-	.	.
.	.	.	16G\	-ła	.	.	16g/	-ła	.	.	16g/	-ła	sa-	.	16g/	-ła	.	.
.	.	.	16G\	już	.	.	16g/	już	.	.	16g/	już	-rem	.	16g/	już	.	.
.	.	.	16G\	nie	.	.	16g/	nie	.	.	16g/	nie	spie-	.	16g/	nie	.	.
=85	=85	=85	=85	=85	=85	=85	=85	=85	=85	=85	=85	=85	=85	=85	=85	=85	=85	=85
4C 4CC^</	4g 4e-X 4c 4G^>/	.	8G^>\	sta-	.	.	8g^</	sta-	.	.	8g^</	sta-	-ta-	.	8g^</	sta-	.	.
.	.	.	16G\	-nie,	.	.	16g/	-nie,	.	.	16g/	-nie,	-ti	.	16g/	-nie,	.	.
.	.	.	16G\	nie	.	.	16g/	nie	.	.	16g/	nie	noi	.	16g/	nie	.	.
4BB- 4BBB-^</	4g 4d 4G^>/	.	16G\	zna-	.	.	16g/	zna-	.	.	16g/	zna-	pur	.	16g/	zna-	.	.
.	.	.	16G\	-łeś,	.	.	16g/	-łeś,	.	.	16g/	-łeś,	sa-	.	16g/	-łeś,	.	.
.	.	.	16B-\	o	.	.	16g/	o	.	.	16g/	o	-rem	.	16g/	o	.	.
.	.	.	16d\	nie	.	.	16g/	nie	.	.	16g/	nie	spie-	.	16g/	nie	.	.
=86	=86	=86	=86	=86	=86	=86	=86	=86	=86	=86	=86	=86	=86	=86	=86	=86	=86	=86
*tremolo	*tremolo	*	*	*	*	*	*	*	*	*	*	*	*	*	*	*	*	*
!	!	!LO:DY:b:t=fff.:rj	!LO:ART:color=blue	!	!	!LO:DY:a:t=fff.:rj	!LO:ART:color=blue	!	!	!LO:DY:a:t=fff.:rj	!LO:ART:color=blue	!	!	!LO:DY:a:t=fff.:rj	!LO:ART:color=blue	!	!	!LO:DY:a:t=fff.:rj
32AAA/LLL	32bb-LLL 32gg 32ee\	fff	2c#X^^>\	zna-	.	fff	2ee^^>\	zna-	.	fff	2b-X^^>\	zna-	-ta-	fff	2gg^^>\	zna-	.	fff
32AA/	32cc#X\	.	.	.	.	.	.	.	.	.	.	.	.	.	.	.	.	.
32AAA/	32bb- 32gg 32ee\	.	.	.	.	.	.	.	.	.	.	.	.	.	.	.	.	.
32AA/	32cc#\	.	.	.	.	.	.	.	.	.	.	.	.	.	.	.	.	.
32AAA/	32bb- 32gg 32ee\	.	.	.	.	.	.	.	.	.	.	.	.	.	.	.	.	.
32AA/	32cc#\	.	.	.	.	.	.	.	.	.	.	.	.	.	.	.	.	.
32AAA/	32bb- 32gg 32ee\	.	.	.	.	.	.	.	.	.	.	.	.	.	.	.	.	.
32AA/	32cc#\	.	.	.	.	.	.	.	.	.	.	.	.	.	.	.	.	.
32AAA/	32bb- 32gg 32ee\	.	.	.	.	.	.	.	.	.	.	.	.	.	.	.	.	.
32AA/	32cc#\	.	.	.	.	.	.	.	.	.	.	.	.	.	.	.	.	.
32AAA/	32bb- 32gg 32ee\	.	.	.	.	.	.	.	.	.	.	.	.	.	.	.	.	.
32AA/	32cc#\	.	.	.	.	.	.	.	.	.	.	.	.	.	.	.	.	.
32AAA/	32bb- 32gg 32ee\	.	.	.	.	.	.	.	.	.	.	.	.	.	.	.	.	.
32AA/	32cc#\	.	.	.	.	.	.	.	.	.	.	.	.	.	.	.	.	.
32AAA/	32bb- 32gg 32ee\	.	.	.	.	.	.	.	.	.	.	.	.	.	.	.	.	.
32AA/JJJ	32cc#X\JJJ	.	.	.	.	.	.	.	.	.	.	.	.	.	.	.	.	.
=87	=87	=87	=87	=87	=87	=87	=87	=87	=87	=87	=87	=87	=87	=87	=87	=87	=87	=87
*rep	*	*	*	*	*	*	*	*	*	*	*	*	*	*	*	*	*	*
!	!	!	!LO:ART:color=blue	!	!	!	!LO:ART:color=blue	!	!	!	!LO:ART:color=blue	!	!	!	!LO:ART:color=blue	!	!	!
32AAA/LLL	32ggLLL 32ee 32cc#X\	.	4c#X^^>\	-łeś	.	.	4ee^^>\	-łeś	.	.	4g^^>/	-łeś	-ti,	.	4ee^^>\	-łeś	.	.
32AA/	32b-\	.	.	.	.	.	.	.	.	.	.	.	.	.	.	.	.	.
32AAA/	32gg 32ee 32cc#\	.	.	.	.	.	.	.	.	.	.	.	.	.	.	.	.	.
32AA/	32b-\	.	.	.	.	.	.	.	.	.	.	.	.	.	.	.	.	.
32AAA/	32gg 32ee 32cc#\	.	.	.	.	.	.	.	.	.	.	.	.	.	.	.	.	.
32AA/	32b-\	.	.	.	.	.	.	.	.	.	.	.	.	.	.	.	.	.
32AAA/	32gg 32ee 32cc#\	.	.	.	.	.	.	.	.	.	.	.	.	.	.	.	.	.
32AA/	32b-\	.	.	.	.	.	.	.	.	.	.	.	.	.	.	.	.	.
!	!	!	!LO:ART:color=blue	!	!	!	!LO:ART:color=blue	!	!	!	!LO:ART:color=blue	!	!	!	!LO:ART:color=blue	!	!	!
32AAA/	32gg 32ee 32cc#\	.	4c#^^>\	li-	.	.	4cc#X^^>\	li-	.	.	4e^^>/	li-	al	.	4cc#X^^>\	li-	.	.
32AA/	32b-\	.	.	.	.	.	.	.	.	.	.	.	.	.	.	.	.	.
32AAA/	32gg 32ee 32cc#\	.	.	.	.	.	.	.	.	.	.	.	.	.	.	.	.	.
32AA/	32b-\	.	.	.	.	.	.	.	.	.	.	.	.	.	.	.	.	.
32AAA/	32gg 32ee 32cc#\	.	.	.	.	.	.	.	.	.	.	.	.	.	.	.	.	.
32AA/	32b-\	.	.	.	.	.	.	.	.	.	.	.	.	.	.	.	.	.
32AAA/	32gg 32ee 32cc#\	.	.	.	.	.	.	.	.	.	.	.	.	.	.	.	.	.
32AA/JJJ	32b-\JJJ	.	.	.	.	.	.	.	.	.	.	.	.	.	.	.	.	.
*Xrep	*	*	*	*	*	*	*	*	*	*	*	*	*	*	*	*	*	*
!!LO:LB:g=original
=88	=88	=88	=88	=88	=88	=88	=88	=88	=88	=88	=88	=88	=88	=88	=88	=88	=88	=88
!	!	!	!LO:ART:color=blue	!	!	!	!LO:ART:color=blue	!	!	!	!LO:ART:color=blue	!	!	!	!LO:ART:color=blue	!	!	!
32AAA/LLL	32eeLLL 32cc#X 32a\	.	4A^^>\	-toś-	.	.	4a^^>/	-toś-	.	.	4a^^>/	-toś-	par	.	4a^^>/	-toś-	.	.
32AA/	32ee 32cc# 32a\	.	.	.	.	.	.	.	.	.	.	.	.	.	.	.	.	.
32AAA/	32ee 32cc# 32a\	.	.	.	.	.	.	.	.	.	.	.	.	.	.	.	.	.
32AA/	32ee 32cc# 32a\	.	.	.	.	.	.	.	.	.	.	.	.	.	.	.	.	.
32AAA/	32ee 32cc# 32a\	.	.	.	.	.	.	.	.	.	.	.	.	.	.	.	.	.
32AA/	32ee 32cc# 32a\	.	.	.	.	.	.	.	.	.	.	.	.	.	.	.	.	.
32AAA/	32ee 32cc# 32a\	.	.	.	.	.	.	.	.	.	.	.	.	.	.	.	.	.
32AA/	32eeJJJ 32cc# 32a\	.	.	.	.	.	.	.	.	.	.	.	.	.	.	.	.	.
!	!	!	!LO:ART:color=blue	!	!	!	!LO:ART:color=blue	!	!	!	!LO:ART:color=blue	!	!	!	!LO:ART:color=blue	!	!	!
32AAA/	32cc#LLL 32a 32e/	.	4G^^>\	-ci	.	.	4g^^>/	-ci	.	.	4g^^>/	-ci	al	.	4g^^>/	-ci	.	.
32AA/	32cc# 32a 32e/	.	.	.	.	.	.	.	.	.	.	.	.	.	.	.	.	.
32AAA/	32cc# 32a 32e/	.	.	.	.	.	.	.	.	.	.	.	.	.	.	.	.	.
32AA/	32cc# 32a 32e/	.	.	.	.	.	.	.	.	.	.	.	.	.	.	.	.	.
32AAA/	32cc# 32a 32e/	.	.	.	.	.	.	.	.	.	.	.	.	.	.	.	.	.
32AA/	32cc# 32a 32e/	.	.	.	.	.	.	.	.	.	.	.	.	.	.	.	.	.
32AAA/	32cc# 32a 32e/	.	.	.	.	.	.	.	.	.	.	.	.	.	.	.	.	.
32AA/JJJ	32cc#JJJ 32a 32e/	.	.	.	.	.	.	.	.	.	.	.	.	.	.	.	.	.
*Xtremolo	*Xtremolo	*	*	*	*	*	*	*	*	*	*	*	*	*	*	*	*	*
=89	=89	=89	=89	=89	=89	=89	=89	=89	=89	=89	=89	=89	=89	=89	=89	=89	=89	=89
!	!	!	!LO:ART:color=blue	!	!	!	!LO:ART:color=blue	!	!	!	!LO:ART:color=blue	!	!	!	!LO:ART:color=blue	!	!	!
8AAA/	8a/	.	(>4E^^>\	pa-	.	.	(<4e^^>/	pa-	.	.	(<4e^^>/	pa-	par-	.	(<4e^^>/	pa-	.	.
*	*	*	*	*Xij	*	*	*	*Xij	*	*	*	*Xij	*	*	*	*	*	*
16eLL 16A\	16aaLL 16ee 16cc#X 16a\	.	.	.	.	.	.	.	.	.	.	.	.	.	.	.	.	.
16eJJ 16A\	16aaJJ 16ee 16cc# 16a\	.	.	.	.	.	.	.	.	.	.	.	.	.	.	.	.	.
!	!	!	!LO:ART:color=blue	!	!	!	!LO:ART:color=blue	!	!	!	!LO:ART:color=blue	!	!	!	!LO:ART:color=blue	!	!	!
8eL 8A\	8aaL 8ee 8cc# 8a\	.	4A^^>\)	.	.	.	4a^^>/)	.	.	.	4a^^>/)	.	-di-	.	4a^^>/)	.	.	.
8eJ 8A\	8aaJ 8ee 8cc# 8a\	.	.	.	.	.	.	.	.	.	.	.	.	.	.	.	.	.
=90	=90	=90	=90	=90	=90	=90	=90	=90	=90	=90	=90	=90	=90	=90	=90	=90	=90	=90
!	!	!	!	!	!	!	!	!	!	!	!	!	!	!	!LO:TX:B:a:t=H:color=red	!	!	!
!	!	!	!LO:ART:color=blue	!	!	!	!LO:ART:color=blue	!	!	!	!LO:ART:color=blue	!	!	!	!LO:ART:color=blue	!	!	!
8f 8d\	8ff|> 8dd 8a\	.	8D^^>\	-nie!	.	.	8d^^>/	-nie!	.	.	8d^^>/	-nie!	-te!	.	8d^^>/	-nie!	.	.
8FL 8FF/	8ddL 8a/	.	16d\	Kie-	l'os-	.	8r	.	.	.	8r	.	.	.	8r	.	.	.
.	.	.	16d\	-dy	-sa a	.	.	.	.	.	.	.	.	.	.	.	.	.
8E 8EE/	8cc#X 8g/	.	16c#X\	ja-	nu-	.	4r	.	.	.	4r	.	.	.	4r	.	.	.
.	.	.	16c#\	-dła	-do	.	.	.	.	.	.	.	.	.	.	.	.	.
8DJ 8DD/	8ccnJ 8f#X/	.	16cn\	już	gli	.	.	.	.	.	.	.	.	.	.	.	.	.
.	.	.	16c\	nie	sco-	.	.	.	.	.	.	.	.	.	.	.	.	.
=91	=91	=91	=91	=91	=91	=91	=91	=91	=91	=91	=91	=91	=91	=91	=91	=91	=91	=91
!	!	!	!LO:ACC:color=blue	!	!	!	!	!	!	!	!	!	!	!	!	!	!	!
8C#XL 8CC#X/	8bnL 8e#X/	.	8Bn\	sta-	-pria-	.	8r	.	.	.	8r	.	.	.	2r	.	.	.
*	*	*	*	*	*	*	*	*	*	*	*	*	*above	*	*	*	*	*
8Cn 8CCn/	8ee 8a#X 8en/	.	8A#X\	-nie	-mo,	.	16ee\	Szarp-	.	.	16e/	Szarp-	le	.	.	.	.	.
.	.	.	.	.	.	.	16ee\	-my	.	.	16e/	-my	sue	.	.	.	.	.
8BBn 8BBBn/	8dd#X 8bn 8f#X/	.	8B\	szarp-	le	.	16dd#X\	cia-	.	.	16f#X/	cia-	car-	.	.	.	.	.
.	.	.	.	.	.	.	16dd#\	-ło	.	.	16f#/	-ło	-ni	.	.	.	.	.
!	!LO:TX:B:b:t=V&colon; S&colon;	!	!	!	!	!	!	!	!	!	!	!	!	!	!	!	!	!
8BB-XJ 8BBB-X/	8ddnJ 8g#X 8d/	.	8E\	-my	sue	.	16ddn\	bez	.	.	16g#X/	bez	la-	.	.	.	.	.
.	.	.	.	.	.	.	16dd\	li-	.	.	16g#/	li-	-ce-	.	.	.	.	.
!!LO:PB:g=original
=92	=92	=92	=92	=92	=92	=92	=92	=92	=92	=92	=92	=92	=92	=92	=92	=92	=92	=92
*	*	*	*	*	*	*	*	*	*	*	*	*	*below	*	*	*	*	*
8AA 8AAA/	8cc#X 8a 8e/	.	8A\	cia-	os-	.	8cc#X\	toś-	ria-	.	16a/	-toś-	-ria-	.	8r	.	.	.
.	.	.	.	.	.	.	.	.	.	.	16a/	-ći	-mo,	.	.	.	.	.
8FL 8FF/	8aaL 8ccn 8a\	.	8A\	-ło,	-sa a	.	16a\	-ci	-mo,	.	16a/	nie-	l'os-	.	16a/	nie-	l'os-	.
*	*	*	*	*	*	*	*	*	*	*	*	*ij	*	*	*	*	*	*
.	.	.	.	.	.	.	16a\	niech	si	.	16a/	-chaj	-sa	.	16a/	-chaj	-sa	.
8E 8EE/	8gg#X 8dd 8bn\	.	8Bn\	nie-	nu-	.	8bn\	świe-	la-	.	16a/	na-	nu-	.	16bn\	na-	nu-	.
.	.	.	.	.	.	.	.	.	.	.	16a/	-gie	-do	.	16b\	-gie	-do	.
8AA/J	8ggnJ 8ee 8cc#X\	.	8c#X\	-chaj	-do	.	8cc#\	-cą	-ce-	.	16a/	swie-	gli	.	16cc#X\	swie-	gli	.
.	.	.	.	.	.	.	.	.	.	.	16a/	-cą	sco-	.	16cc#\	-cą	sco-	.
=93	=93	=93	=93	=93	=93	=93	=93	=93	=93	=93	=93	=93	=93	=93	=93	=93	=93	=93
8DL 8DD/	8ff#XL 8dd\	.	8d\	swie-	gli	.	(>4.dd\	koś-	-ria-	.	(<8a/	koś-	-pria-	.	(>8dd\L	koś-	-pria-	.
*	*	*	*	*	*	*	*	*	*	*	*	*Xij	*	*	*	*	*	*
8BB- 8BBB-/	8ffn 8dd 8b-X\	.	8B-\	-cą	sco-	.	.	.	.	.	4b-X/	.	.	.	8ff\J	.	.	.
8GG 8GGG/	8ee 8dd 8b-\	.	(>8G\L	koś-	-pria-	.	.	.	.	.	.	.	.	.	4ee\)	.	.	.
8AAJ 8AAA/	8eeJ 8cc#X 8a\	.	8A\J)	.	.	.	8cc#X\)	.	.	.	8a/)	.	.	.	.	.	.	.
=94	=94	=94	=94	=94	=94	=94	=94	=94	=94	=94	=94	=94	=94	=94	=94	=94	=94	=94
8BB- 8BBB-/	8dd 8f/	.	8B-\	-ci.	-mo.	.	8dd\	-ci.	-mo.	.	8f/	-ci.	-mo	.	8dd\	-ci.	-mo.	.
8FL 8FF/	8ddL 8a/	.	16d\	Kie-	.	.	16ff\	Kie-	I	.	16a/	Kie-	.	.	16dd\	Kie-	I	.
*	*	*	*	*ij	*	*	*	*ij	*	*	*	*ij	*	*	*	*	*	*
.	.	.	16d\	-dy	.	.	16ff\	-dy	qua-	.	16a/	-dy	.	.	16dd\	-dy	qua-	.
8E 8EE/	8cc#X 8g/	.	16c#X\	ja-	.	.	16ee\	ja-	-lun-	.	16g/	ja-	.	.	16cc#X\	ja-	-lun-	.
.	.	.	16c#\	-dła	.	.	16ee\	-dła	-que	.	16g/	-dła	.	.	16cc#\	-dła	-que	.
8D#XJ 8DD#X/	8ccnJ 8f#X/	.	16cn\	już	.	.	16ee-X\	już	ci-	.	16f#X/	już	.	.	16ccn\	już	ci-	.
.	.	.	16c\	nie	.	.	16ee-\	nie	-bo a	.	16f#/	nie	.	.	16cc\	nie	-bo a-	.
!!LO:LB:g=original
=95	=95	=95	=95	=95	=95	=95	=95	=95	=95	=95	=95	=95	=95	=95	=95	=95	=95	=95
8DnL 8DDn/	8bnL 8e#X/	.	16Bn\	sta-	.	.	16ddn\	sta-	doc-	.	16fn/	sta-	.	.	16bn\	sta-	-doc-	.
.	.	.	16B\	-nie,	.	.	16dd\	-nie,	-chi	.	16f/	-nie,	.	.	16b\	-nie,	-chi	.
!	!LO:ACC:n=1:color=blue	!	!	!	!	!	!	!	!	!	!	!	!	!	!	!	!	!
!	!LO:ACC:n=3:color=blue	!	!	!	!	!	!LO:ACC:color=blue	!	!	!	!LO:ACC:color=blue	!	!	!	!LO:ACC:color=blue	!	!	!
8Cn 8CCn/	8een 8a#X 8en/	.	16A#X\	szarp-	.	.	16een\	szarp-	da	.	16en/	szarp-	.	.	16een\	szarp-	da	.
.	.	.	16A#\	-my	.	.	16ee\	-my	noi	.	16e/	-my	.	.	16ee\	-my	noi	.
8BBn 8BBBn/	8dd#X 8bn 8f#X/	.	16B\	cia-	.	.	16bn\	cia-	to-	.	16f#X/	cia-	.	.	16dd#X\	cia-	to-	.
.	.	.	16B\	-ło	.	.	16b\	-ło	-sto	.	16f#/	-ło	.	.	16dd#\	-ło	-sto	.
8BB-XJ 8BBB-X/	8ddnJ 8g#X 8d/	.	16G#X\	bez	.	.	16dd\	bez	s'ag-	.	16e/	bez	.	.	16ddn\	bez	s'ag-	.
.	.	.	16G#\	li-	.	.	16dd\	li-	-gher-	.	16e/	li-	.	.	16dd\	li-	-gher-	.
*	*	*	*	*Xij	*	*	*	*Xij	*	*	*	*Xij	*	*	*	*	*	*
=96	=96	=96	=96	=96	=96	=96	=96	=96	=96	=96	=96	=96	=96	=96	=96	=96	=96	=96
*	*	*	*	*	*above	*	*	*	*	*	*	*	*	*	*	*	*	*
8AA 8AAA/	8cc#X 8a 8e/	.	8A\	-toś-	mi-	.	16a/	toś-	-mi-	.	16e/	-toś-	mi-	.	8cc#X\	-toś-	-mi-	.
.	.	.	.	.	.	.	16a/	-ci,	-gli	.	16a/	-ci,	-gli	.	.	.	.	.
8FFL 8FFF/	8aaL 8dd 8a\	.	8F\	-ci,	-gli,	.	16dd\	nie-	da	.	16a/	nie-	da	.	16dd\	-ci	-gli	.
.	.	.	.	.	.	.	16dd\	-chaj	noi	.	16a/	-chaj	noi	.	16dd\	niech	gli	.
8EE 8EEE/	8gg#X 8dd 8bn\	.	8E\	nie-	da	.	8dd^>\	swie-	to-	.	16g#X/	na-	to-	.	8bn\	świe-	s'ag-	.
.	.	.	.	.	.	.	.	.	.	.	16g#/	-gie	-sto	.	.	.	.	.
8AAJ 8AAA/	8ggnJ 8ee 8cc#\	.	8A\	-chaj	noi	.	16ee\	-cą,	-sto	.	16gn/	świe-	s'ag-	.	8cc#\	-cą	-gher-	.
.	.	.	.	.	.	.	16ee\	niech	si	.	16g/	-cą	-gher-	.	.	.	.	.
=97	=97	=97	=97	=97	=97	=97	=97	=97	=97	=97	=97	=97	=97	=97	=97	=97	=97	=97
!	!	!	!	!	!	!	!	!	!	!	!LO:TX:a:t=P:problem=niejednoznaczne zakończenie łuku	!	!	!	!	!	!	!
8DL 8DD/	8ff#XL 8dd\	.	8d\	świe-	s'ag-	.	8dd\	swie-	s'ag-	.	(<8f#X/L	koś-	-mi-	.	(>8dd\L	koś-	-mi-	.
8F 8FF/	8ffn 8dd 8a\	.	8F\	-cą	-gher-	.	8dd\	-cą	-gher-	.	8fn/	.	.	.	8aa\J	.	.	.
8AJ 8AA/	8eeJ 8cc#X 8a\	.	4A\	Koś-	-mi	.	(>8cc#X\L	koś-	-mi-	.	8e/	.	.	.	8gg\L	.	.	.
*	*	*	*	*	*below	*	*	*	*	*	*	*	*	*	*	*	*	*
!	!	!LO:DY:b:rj	!	!	!	!	!	!	!	!	!	!	!	!	!	!	!	!
16DLL 16AA 16DD/	16dddLL 16ff 16dd\	fff	.	.	.	.	8dd\J)	.	.	.	8d/J)	.	.	.	16ff\L	.	.	.
16DJJ 16AA 16DD/	16dddJJ 16ff 16dd\	.	.	.	.	.	.	.	.	.	.	.	.	.	16ee\JJ)	.	.	.
!!LO:PB:g=original
=98	=98	=98	=98	=98	=98	=98	=98	=98	=98	=98	=98	=98	=98	=98	=98	=98	=98	=98
8D 8AA 8DD'</	(>16dddLL 16ff 16dd\	.	4D\	-ci.	.	.	4dd\	-ci.	-gli.	.	4d/	-ci.	-gli.	.	4dd\	-ci.	gli.	.
.	16aa\)	.	.	.	.	.	.	.	.	.	.	.	.	.	.	.	.	.
16dLL 16A 16F'>\	16aa 16ff'>\	.	.	.	.	.	.	.	.	.	.	.	.	.	.	.	.	.
16dJJ 16A 16F'>\	16aaJJ 16ff'>\	.	.	.	.	.	.	.	.	.	.	.	.	.	.	.	.	.
8d 8A 8F'>\	(>16aaLL 16ff\	.	8r	.	.	.	8r	.	.	.	8r	.	.	.	8r	.	.	.
.	16ff 16dd\)	.	.	.	.	.	.	.	.	.	.	.	.	.	.	.	.	.
16DLL 16AA 16DD'</	16ff 16dd'>\	.	16d\	So-	.	.	16ff\	So-	Chi	.	16a/	So-	.	.	16ff\	So-	Chi	.
*	*	*	*	*ij	*	*	*	*ij	*	*	*	*ij	*	*	*	*	*	*
16DJJ 16AA 16DD'</	16ffJJ 16dd'>\	.	16d\	-wy,	.	.	16ff\	-wy,	spar-	.	16a/	-wy,	.	.	16ff\	-wy,	spar-	.
=99	=99	=99	=99	=99	=99	=99	=99	=99	=99	=99	=99	=99	=99	=99	=99	=99	=99	=99
*rep	*	*	*	*	*	*	*	*	*	*	*	*	*	*	*	*	*	*
8D 8AA 8DD'</	(>16ffLL 16dd\	.	4d\	kru-	.	.	4ff\	kru-	-vie-	.	4a/	kru-	.	.	4ff\	kru-	-vie-	.
.	16a\)	.	.	.	.	.	.	.	.	.	.	.	.	.	.	.	.	.
16dLL 16A 16F'>\	16ff 16dd'>\	.	.	.	.	.	.	.	.	.	.	.	.	.	.	.	.	.
16dJJ 16A 16F'>\	16ggJJ 16ee'>\	.	.	.	.	.	.	.	.	.	.	.	.	.	.	.	.	.
8d 8A 8F'>\	8aa 8ff|>\	.	8D\	-ki,	.	.	8a/	-ki,	-ri	.	8f/	-ki,	.	.	8dd\	-ki,	-ri	.
16DLL 16AA 16DD'</	16aaLL 16ff 16a'>\	.	16d\	so-	.	.	16ff\	so-	gu-	.	16a/	so-	.	.	16ff\	so-	gu-	.
16DJJ 16AA 16DD'</	16aaJJ 16ff 16a'>\	.	16d\	-wy,	.	.	16ff\	-wy,	-fi e	.	16a/	-wy,	.	.	16ff\	-wy,	-fi e	.
*Xrep	*	*	*	*	*	*	*	*	*	*	*	*	*	*	*	*	*	*
=100	=100	=100	=100	=100	=100	=100	=100	=100	=100	=100	=100	=100	=100	=100	=100	=100	=100	=100
*rep	*	*	*	*	*	*	*	*	*	*	*	*	*	*	*	*	*	*
8D 8AA 8DD'</	(>16aaLL 16ff 16a\	.	4d\	kru-	.	.	4ff\	kru-	cor-	.	4a/	kru-	.	.	4ff\	kru-	cor-	.
.	16ff 16dd\)	.	.	.	.	.	.	.	.	.	.	.	.	.	.	.	.	.
16dLL 16A 16F'>\	16ff 16dd'>\	.	.	.	.	.	.	.	.	.	.	.	.	.	.	.	.	.
16dJJ 16A 16F'>\	16ffJJ 16dd'>\	.	.	.	.	.	.	.	.	.	.	.	.	.	.	.	.	.
8d 8A 8F'>\	(<16ffLL 16a/	.	8D\	-ki	.	.	8a/	-ki	-vi,	.	8f/	-ki	.	.	8dd\	-ki	-vi,	.
.	16dd 16f/)	.	.	.	.	.	.	.	.	.	.	.	.	.	.	.	.	.
16DLL 16AA 16DD'</	16dd 16f'</	.	16d\	i	.	.	16ff\	i	su	.	16a/	i	.	.	16ff\	i	su	.
16DJJ 16AA 16DD'</	16ddJJ 16f'</	.	16d\	pu-	.	.	16ff\	pu-	vo-	.	16a/	pu-	.	.	16ff\	pu-	vo-	.
*Xrep	*	*	*	*	*	*	*	*	*	*	*	*	*	*	*	*	*	*
=101	=101	=101	=101	=101	=101	=101	=101	=101	=101	=101	=101	=101	=101	=101	=101	=101	=101	=101
!	!	!LO:HP:b	!	!	!	!	!	!	!	!	!	!	!	!	!	!	!	!
8D 8AA 8DD/	(<16ddLL 16f/	>	4d\	-ha-	.	.	4ff\	-ha-	-la-	.	4a/	-ha-	.	.	4ff\	-ha-	-la-	.
.	16a/	.	.	.	.	.	.	.	.	.	.	.	.	.	.	.	.	.
16dLL 16A 16F'>\	16dd/	]	.	.	.	.	.	.	.	.	.	.	.	.	.	.	.	.
16dJJ 16A 16F'>\	16ee/JJ	.	.	.	.	.	.	.	.	.	.	.	.	.	.	.	.	.
8d 8A 8F'>\	8ff\)	.	8D\	-cze,	.	.	8a/	-cze,	-te ad	.	8f/	-cze,	.	.	8dd\	-cze,	-te ad	.
8F 8AA 8FF/	8dd|< 8a/	.	16F\	dar-	.	.	16dd\	dar-	in-	.	16a/	dar-	.	.	16ff\	dar-	in-	.
.	.	.	16F\	-mo	.	.	16dd\	-mo	-trap-	.	16a/	-mo	.	.	16ff\	-mo	-trap-	.
=102	=102	=102	=102	=102	=102	=102	=102	=102	=102	=102	=102	=102	=102	=102	=102	=102	=102	=102
8DL 8AA 8DD/	8ff|<L 8a/	.	8D\	że-	.	.	8dd\	że-	-par-	.	8a/	że-	.	.	8ff\	że-	-par-	.
8F 8AA 8FF/	8dd|< 8a/	.	8F\	-brze,	.	.	8dd\	-brze,	-vi.	.	8a/	-brze,	.	.	8dd\	-brze,	-vi.	.
8D 8AA 8DD/	8ff|< 8a/	.	8D\	dar-	.	.	8dd\	dar-	Va-	.	8a/	dar-	.	.	8ff\	dar-	Va-	.
8FJ 8AA 8FF/	8dd|<J 8a/	.	8F\	-mo	.	.	8dd\	-mo	-na	.	8a/	-mo	.	.	8dd\	-mo	-na	.
=103	=103	=103	=103	=103	=103	=103	=103	=103	=103	=103	=103	=103	=103	=103	=103	=103	=103	=103
!	!	!LO:HP:b	!	!	!	!	!	!	!	!	!	!	!	!	!	!	!	!
8D 8AA 8DD/	(<16ffLL 16a/	>	4D\	pła-	.	.	4dd\	pła-	si-	.	4a/	pła-	.	.	4ff\	pła-	si-	.
.	16dd/)	.	.	.	.	.	.	.	.	.	.	.	.	.	.	.	.	.
16dLL 16A 16F'>\	(<16dd/	]	.	.	.	.	.	.	.	.	.	.	.	.	.	.	.	.
16dJJ 16A 16F'>\	16ee/JJ)	.	.	.	.	.	.	.	.	.	.	.	.	.	.	.	.	.
8d 8A 8F'>\	8ff|>\	.	8F\	-cze,	.	.	8dd\	-cze,	-a	.	8a/	-cze,	.	.	8dd\	-cze,	-a	.
8F 8AA 8FF/	8dd|< 8a/	.	16F\	dar-	.	.	16dd\	dar-	la	.	16a/	dar-	.	.	16dd\	dar-	la	.
.	.	.	16F\	-mo	.	.	16dd\	-mo	sua	.	16a/	-mo	.	.	16dd\	-mo	sua	.
!!LO:LB:g=original
=104	=104	=104	=104	=104	=104	=104	=104	=104	=104	=104	=104	=104	=104	=104	=104	=104	=104	=104
*	*	*	*	*Xij	*	*	*	*Xij	*	*	*	*Xij	*	*	*	*	*	*
8D|<L 8AA 8DD/	8ff|<L 8a/	.	8D\	że-	.	.	8dd\	że-	pre-	.	8a/	że-	.	.	8ff\	że-	pre-	.
8F|< 8AA 8FF/	8dd|< 8a/	.	8F\	-brze,	.	.	8dd\	-brze,	-ce,	.	8a/	-brze,	.	.	8dd\	-brze,	-ce,	.
8D|< 8AA 8DD/	8ff|< 8a/	.	8D\	dar-	.	.	8dd\	dar-	va-	.	8a/	dar-	.	.	8ff\	dar-	va-	.
8F|<J 8AA 8FF/	8dd|<J 8a/	.	16F\LL	-mo	.	.	8dd\	-mo	-no il	.	8a/	-mo	.	.	8dd\	-mo	-no il	.
.	.	.	16A\JJ	.	.	.	.	.	.	.	.	.	.	.	.	.	.	.
=105	=105	=105	=105	=105	=105	=105	=105	=105	=105	=105	=105	=105	=105	=105	=105	=105	=105	=105
8D|< 8AA 8DD/	8ff|< 8a/	.	[>2d\	pła-	.	.	[>2ff\	pła-	pian-	.	[<2a/	pła-	.	.	[>2aa\ 2dd@	pła-	pian-	.
16ALL 16D'>\	16dd|<LL 16f/	.	.	.	.	.	.	.	.	.	.	.	.	.	.	.	.	.
16AJJ 16D'>\	16dd|<JJ 16f/	.	.	.	.	.	.	.	.	.	.	.	.	.	.	.	.	.
8AL 8D'>\	8ddL 8f'</	.	.	.	.	.	.	.	.	.	.	.	.	.	.	.	.	.
16AL 16D'>\	16aL 16f'</	.	.	.	.	.	.	.	.	.	.	.	.	.	.	.	.	.
16AJJ 16D'>\	16aJJ 16f'</	.	.	.	.	.	.	.	.	.	.	.	.	.	.	.	.	.
=106	=106	=106	=106	=106	=106	=106	=106	=106	=106	=106	=106	=106	=106	=106	=106	=106	=106	=106
8AL 8D'>\	8aL 8f'</	.	2d\]	.	.	.	2ff\]	.	.	.	2a/]	.	.	.	2aa\] 2dd@	.	.	.
16AL 16D'>\	16fL 16d'</	.	.	.	.	.	.	.	.	.	.	.	.	.	.	.	.	.
16AJJ 16D'>\	16fJJ 16d'</	.	.	.	.	.	.	.	.	.	.	.	.	.	.	.	.	.
8A 8D'>\	8fL 8d'</	.	.	.	.	.	.	.	.	.	.	.	.	.	.	.	.	.
16DLL 16DD/	16d'</L	.	.	.	.	.	.	.	.	.	.	.	.	.	.	.	.	.
16DJJ 16DD/	16d'</JJ	.	.	.	.	.	.	.	.	.	.	.	.	.	.	.	.	.
=107	=107	=107	=107	=107	=107	=107	=107	=107	=107	=107	=107	=107	=107	=107	=107	=107	=107	=107
4.D 4.DD^</	4.d^</	.	4D\	-cze!	.	.	4d/	-cze!	-to!	.	4d/	-cze!	.	.	4dd\	-cze!	-to!	.
.	.	.	4r	.	.	.	4r	.	.	.	4r	.	.	.	4r	.	.	.
16DLL 16DD/	16d'</LL	.	.	.	.	.	.	.	.	.	.	.	.	.	.	.	.	.
16DJJ 16DD/	16d'</JJ	.	.	.	.	.	.	.	.	.	.	.	.	.	.	.	.	.
=108	=108	=108	=108	=108	=108	=108	=108	=108	=108	=108	=108	=108	=108	=108	=108	=108	=108	=108
8D 8DD/	8d'</L	.	2r	.	.	.	2r	.	.	.	2r	.	.	.	2r	.	.	.
8DL 8GG\	8d 8B-< 8G</	.	.	.	.	.	.	.	.	.	.	.	.	.	.	.	.	.
8D 8DD\	8d 8A< 8F</	.	.	.	.	.	.	.	.	.	.	.	.	.	.	.	.	.
8DJ 8GG\	8dJ 8B-< 8G</	.	.	.	.	.	.	.	.	.	.	.	.	.	.	.	.	.
=109	=109	=109	=109	=109	=109	=109	=109	=109	=109	=109	=109	=109	=109	=109	=109	=109	=109	=109
2D 2DD;<\	2d 2A< 2F<;>/	.	2r;>	.	.	.	2r;>	.	.	.	2r;>	.	.	.	2r;>	.	.	.
==	==	==	==	==	==	==	==	==	==	==	==	==	==	==	==	==	==	==
*-	*-	*-	*-	*-	*-	*-	*-	*-	*-	*-	*-	*-	*-	*-	*-	*-	*-	*-
!!!system-decoration: [s1,s2,s3,s4][(s5,s6)]
!!!RDF**kern: j = marked note, color=grey
!!!RDF**kern: | = vertical stroke
!!!RDF**kern: @ = marked note, color=blue
!!!RDF**kern: > = above
!!!RDF**kern: < = below
!!!ENC: Krzysztof Stępień
!!!END: 2021-09-10
!!!ENC: Antoni Szymański
!!!END: 2021-10-15
